;122
;Printer name: Creality Ender 3 Pro
;TIME:3046
;Print time: 50m:46s
;Extruder 1 material used: 2395mm
;Extruder 1 material name: 
;Extruder 1 filament diameter: 1.75mm
;Extruder 1 nozzle diameter: 0.4mm
;Extruder 1 offset x: 0mm
;Extruder 1 offset y: 0mm
;Extruder 1 offset z: 0mm
;Extruder 1 max temp: 250
;Bed temp: 85
;Layer count: 173
;Width: 220mm
;Depth: 220mm
;Height: 250mm
;Center x: 110mm
;Center y: 110mm
;Center z: 0mm
;Count of bodies: 1
;Fusion version: 2.0.15299
G21
;--------------------------------
;Selected Profile: ABS 1.75mm
;--------------------------------
;Selected Printer: Creality, Ender 3 Pro
;--------------------------------
T0
M140 S85
M104 S250 T0
M105
M190 S85
M105
M109 S250 T0
G0 F6000
G90
M83
;Reset multiplier
M220 S100
M221 S100
G28
G1 Z10
G92 E0
G0 X10 Y10 Z10
G92 E0
;--------------------------------
;Part 1
;Layer : 1 of 173
M107
;rapid-leaky
G0 X20 Y20.5 Z0.2 F6000
G1 F1800 E0.5
;bead-prime
G1 X80 F720 E4.989
G1 F1800 E-0.5
G0 X79.2 F2400
G0 X80 F2400
;rapid-dry
G0 X106.67 Y77.107 F6000
G1 F1800 E0.5
;bead-skirt/brim
G1 X112.844 Y79.175 F1200 E0.217
G1 X113.793 Y79.237 E0.031
G1 X116.264 Y79.645 E0.084
G1 X118.695 Y80.247 E0.083
G1 X122.105 Y81.462 E0.12
G1 X125.344 Y83.067 E0.12
G1 X127.467 Y84.397 E0.084
G1 X129.478 Y85.887 E0.083
G1 X132.116 Y88.281 E0.118
G1 X133.832 Y90.18 E0.086
G1 X135.982 Y93.09 E0.12
G1 X137.774 Y96.235 E0.12
G1 X138.79 Y98.523 E0.084
G1 X139.626 Y100.883 E0.083
G1 X140.476 Y104.342 E0.118
G1 X140.839 Y106.878 E0.086
G1 X140.994 Y110.434 E0.118
G1 X140.852 Y112.989 E0.085
G1 X140.305 Y116.511 E0.119
G1 X139.666 Y118.988 E0.085
G1 X138.437 Y122.333 E0.118
G1 X137.323 Y124.637 E0.085
G1 X135.464 Y127.675 E0.119
G1 X133.917 Y129.716 E0.085
G1 X131.46 Y132.369 E0.12
G1 X128.707 Y134.715 E0.121
G1 X126.651 Y136.142 E0.083
G1 X124.486 Y137.405 E0.083
G1 X121.247 Y138.884 E0.119
G1 X118.824 Y139.715 E0.085
G1 X115.357 Y140.531 E0.118
G1 X114.842 Y140.599 E0.017
G1 X113.603 Y142.983 E0.09
G1 X107.233 Y140.852 E0.223
G1 X106.815 Y140.833 E0.014
G1 X104.337 Y140.472 E0.083
G1 X101.893 Y139.918 E0.084
G1 X98.515 Y138.79 E0.118
G1 X96.188 Y137.75 E0.085
G1 X95.754 Y137.503 E0.017
G1 X93.391 Y138.576 E0.086
G1 X89.611 Y133.319 E0.215
G1 X88.28 Y132.109 E0.06
G1 X86.564 Y130.286 E0.083
G1 X84.357 Y127.42 E0.121
G1 X82.518 Y124.335 E0.119
G1 X79.922 Y123.957 E0.087
G1 X79.762 Y118.333 E0.188
G1 X79.808 Y116.916 E0.047
G1 X79.62 Y116.151 E0.026
G1 X79.114 Y112.623 E0.119
G1 X79.003 Y110.066 E0.085
G1 X79.201 Y106.513 E0.118
G1 X79.584 Y104.036 E0.083
G1 X80.163 Y101.6 E0.084
G1 X81.343 Y98.179 E0.12
G1 X82.917 Y94.921 E0.12
G1 X84.254 Y92.739 E0.085
G1 X86.405 Y89.9 E0.119
G1 X88.106 Y88.063 E0.083
G1 X89.947 Y86.364 E0.084
G1 X92.833 Y84.188 E0.12
G1 X95.961 Y82.363 E0.12
G1 X98.238 Y81.325 E0.083
G1 X100.59 Y80.465 E0.084
G1 X104.042 Y79.581 E0.118
G1 X105.374 Y79.377 E0.045
G1 X106.67 Y77.107 E0.087
G1 F1800 E-0.5
G0 X107.429 Y77.361 F2400
G0 X106.67 Y77.107 F2400
;rapid-leaky
G0 X106.855 Y77.591 F6000
G1 F1800 E0.5
;bead-skirt/brim
G1 X112.766 Y79.571 F1200 E0.207
G1 X113.747 Y79.635 E0.033
G1 X116.183 Y80.037 E0.082
G1 X118.579 Y80.631 E0.082
G1 X121.948 Y81.831 E0.119
G1 X125.148 Y83.417 E0.119
G1 X127.242 Y84.728 E0.082
G1 X129.224 Y86.197 E0.082
G1 X131.832 Y88.564 E0.117
G1 X133.522 Y90.433 E0.084
G1 X135.646 Y93.309 E0.119
G1 X137.417 Y96.416 E0.119
G1 X138.419 Y98.671 E0.082
G1 X139.242 Y100.998 E0.082
G1 X140.083 Y104.418 E0.117
G1 X140.44 Y106.915 E0.084
G1 X140.593 Y110.432 E0.117
G1 X140.454 Y112.947 E0.084
G1 X139.913 Y116.43 E0.117
G1 X139.283 Y118.868 E0.084
G1 X138.068 Y122.177 E0.117
G1 X136.972 Y124.445 E0.084
G1 X135.133 Y127.449 E0.117
G1 X133.611 Y129.459 E0.084
G1 X131.182 Y132.08 E0.119
G1 X128.463 Y134.398 E0.119
G1 X126.436 Y135.805 E0.082
G1 X124.302 Y137.049 E0.082
G1 X121.098 Y138.512 E0.117
G1 X118.713 Y139.33 E0.084
G1 X115.285 Y140.137 E0.117
G1 X114.583 Y140.23 E0.024
G1 X113.406 Y142.496 E0.085
G1 X107.307 Y140.455 E0.214
G1 X106.853 Y140.434 E0.015
G1 X104.41 Y140.078 E0.082
G1 X102.001 Y139.532 E0.082
G1 X98.661 Y138.417 E0.117
G1 X96.369 Y137.393 E0.083
G1 X95.775 Y137.054 E0.023
G1 X93.524 Y138.076 E0.082
G1 X89.911 Y133.051 E0.206
G1 X88.56 Y131.824 E0.061
G1 X86.869 Y130.027 E0.082
G1 X84.688 Y127.195 E0.119
G1 X82.858 Y124.124 E0.119
G1 X82.786 Y123.969 E0.006
G1 X80.313 Y123.61 E0.083
G1 X80.163 Y118.334 E0.175
G1 X80.209 Y116.874 E0.049
G1 X80.013 Y116.074 E0.027
G1 X79.513 Y112.586 E0.117
G1 X79.404 Y110.068 E0.084
G1 X79.599 Y106.555 E0.117
G1 X79.977 Y104.113 E0.082
G1 X80.547 Y101.711 E0.083
G1 X81.713 Y98.332 E0.118
G1 X83.269 Y95.113 E0.119
G1 X84.585 Y92.965 E0.084
G1 X86.711 Y90.157 E0.117
G1 X88.389 Y88.346 E0.082
G1 X90.204 Y86.672 E0.083
G1 X93.055 Y84.521 E0.118
G1 X96.145 Y82.719 E0.119
G1 X98.39 Y81.695 E0.082
G1 X100.709 Y80.848 E0.082
G1 X104.122 Y79.974 E0.118
G1 X105.626 Y79.743 E0.05
G1 X106.855 Y77.591 E0.083
G1 F1800 E-0.5
G0 X107.614 Y77.845 F2400
G0 X106.855 Y77.591 F2400
;rapid-dry
G0 X89.989 Y94.972 F6000
G1 F1800 E0.5
;bead-support
G1 X107.079 Y85.105 E0.656
G1 X107.18 Y85.09 E0.003
G1 X110.149 Y84.931 E0.099
G1 X112.453 Y85.082 E0.077
G1 X87.202 Y99.66 E0.97
G1 X86.825 Y100.44 E0.029
G1 X85.855 Y103.253 E0.099
G1 X85.782 Y103.559 E0.01
G1 X116.526 Y85.809 E1.181
G1 X116.986 Y85.923 E0.016
G1 X119.789 Y86.921 E0.099
G1 X119.867 Y86.96 E0.002
G1 X85.112 Y107.025 E1.335
G1 X85.096 Y107.131 E0.004
G1 X84.93 Y110.102 E0.099
G1 X84.935 Y110.207 E0.003
G1 X122.705 Y88.4 E1.451
G1 X124.129 Y89.292 E0.056
G1 X125.164 Y90.059 E0.043
G1 X85.17 Y113.15 E1.536
G1 X85.439 Y115.022 E0.062
G1 X85.665 Y115.944 E0.032
G1 X105.846 Y104.292 E0.775
G1 X105.875 Y104.267 E0.001
G1 X106.258 Y104.054 E0.015
G1 X127.3 Y91.906 E0.808
G1 X127.92 Y92.468 E0.028
G1 X129.202 Y93.887 E0.063
G1 X112.602 Y103.471 E0.638
G1 X113.733 Y104.005 E0.042
G1 X114.76 Y104.782 E0.042
G1 X115.062 Y105.13 E0.016
G1 X130.802 Y96.042 E0.604
G1 X131.012 Y96.326 E0.012
G1 X132.159 Y98.338 E0.077
G1 X116.533 Y107.36 E0.6
G1 X116.863 Y108.331 E0.034
G1 X117.063 Y109.955 E0.055
G1 X117.047 Y110.142 E0.006
G1 X133.301 Y100.758 E0.624
G1 X133.947 Y102.582 E0.065
G1 X134.137 Y103.354 E0.026
G1 X115.894 Y113.887 E0.701
G1 X115.883 Y113.908 E0.001
G1 X115.073 Y114.913 E0.042
G1 X114.125 Y115.733 E0.042
G1 X112.696 Y116.528 E0.055
G1 X111.501 Y116.901 E0.041
G1 X110.449 Y117.031 E0.035
G1 X92.157 Y127.591 E0.703
G1 X91.076 Y126.442 E0.052
G1 X90.38 Y125.538 E0.038
G1 X106.62 Y116.162 E0.624
G1 X106.267 Y115.995 E0.013
G1 X105.24 Y115.218 E0.043
G1 X104.466 Y114.326 E0.039
G1 X88.826 Y123.356 E0.601
G1 X87.74 Y121.533 E0.07
G1 X87.508 Y121.038 E0.019
G1 X103.236 Y111.958 E0.604
G1 X103.137 Y111.669 E0.01
G1 X102.937 Y110.045 E0.054
G1 X103.027 Y108.999 E0.035
G1 X86.48 Y118.552 E0.636
G1 E-0.5
G0 X87.173 Y118.152 F2400
G0 X86.48 Y118.552 F2400
;rapid-leaky
G0 X94.239 Y129.468 F6000
G1 F1800 E0.5
;bead-support
G1 X134.745 Y106.082 E1.555
G1 X134.937 Y107.427 E0.045
G1 X135.006 Y109.011 E0.053
G1 X96.617 Y131.175 E1.474
G1 X98.865 Y132.462 E0.087
G1 X99.347 Y132.678 E0.017
G1 X134.972 Y112.11 E1.368
G1 X134.957 Y112.37 E0.009
G1 X134.5 Y115.313 E0.099
G1 X134.455 Y115.487 E0.006
G1 X102.563 Y133.9 E1.225
G1 X103.489 Y134.209 E0.032
G1 X105.42 Y134.647 E0.066
G1 X106.365 Y134.785 E0.032
G1 X133.26 Y119.257 E1.033
G1 X132.98 Y120.019 E0.027
G1 X132.121 Y121.796 E0.066
G1 X130.988 Y123.648 E0.072
G1 X111.295 Y135.017 E0.756
G1 X112.323 Y134.962 E0.034
G1 X114.286 Y134.701 E0.066
G1 X117.182 Y134.019 E0.099
G1 X119.052 Y133.378 E0.066
G1 X121.036 Y132.472 E0.072
G1 X124.126 Y130.688 E0.119
G1 E-0.5
G0 X123.433 Y131.088 F2400
G0 X124.126 Y130.688 F2400
;rapid-dry
G0 X104.478 Y111.24 F6000
G1 F1800 E0.5
;bead-support
G1 X107.431 Y109.535 E0.114
G1 X107.339 Y110.025 E0.016
G1 X107.55 Y111.041 E0.035
G1 X108.142 Y111.906 E0.035
G1 X108.385 Y112.064 E0.009
G1 X105.657 Y113.639 E0.105
G1 X105.668 Y113.657 E0.001
G1 X106.314 Y114.307 E0.03
G1 X107.059 Y114.845 E0.031
G1 X108.094 Y115.311 E0.037
G1 X115.546 Y111.009 E0.287
G1 X115.668 Y109.965 E0.035
G1 X115.489 Y108.585 E0.046
G1 X115.309 Y108.066 E0.018
G1 X112.591 Y109.636 E0.105
G1 X112.45 Y108.959 E0.023
G1 X111.858 Y108.094 E0.034
G1 X110.987 Y107.529 E0.035
G1 X110.926 Y107.518 E0.002
G1 X113.84 Y105.835 E0.112
G1 X112.729 Y105.032 E0.046
G1 X111.893 Y104.657 E0.03
G1 X111.001 Y104.42 E0.031
G1 X110.964 Y104.416 E0.001
G1 X104.688 Y108.04 E0.241
G1 E-0.5
G0 X105.381 Y107.64 F2400
G0 X104.688 Y108.04 F2400
;Layer : 2 of 173
M106 S255
;rapid-leaky
G0 Z0.35 F6000
G1 F1800 E0.5
;bead-support
G1 X110.964 Y104.416 F3600 E0.181
G1 X111.001 Y104.42 E0.001
G1 X111.893 Y104.657 E0.023
G1 X112.729 Y105.032 E0.023
G1 X113.84 Y105.835 E0.034
G1 X110.926 Y107.518 E0.084
G1 X110.987 Y107.529 E0.001
G1 X111.858 Y108.094 E0.026
G1 X112.45 Y108.959 E0.026
G1 X112.591 Y109.636 E0.018
G1 X115.309 Y108.066 E0.078
G1 X115.489 Y108.585 E0.014
G1 X115.668 Y109.965 E0.034
G1 X115.546 Y111.009 E0.026
G1 X108.094 Y115.311 E0.215
G1 X107.059 Y114.845 E0.028
G1 X106.314 Y114.307 E0.023
G1 X105.668 Y113.657 E0.023
G1 X105.657 Y113.639 E0.001
G1 X108.385 Y112.064 E0.078
G1 X108.142 Y111.906 E0.008
G1 X107.55 Y111.041 E0.026
G1 X107.339 Y110.025 E0.026
G1 X107.431 Y109.535 E0.012
G1 X104.478 Y111.24 E0.085
G1 F1800 E-0.5
G0 X105.17 Y110.84 F2400
G0 X104.478 Y111.24 F2400
;rapid-dry
G0 X89.989 Y94.972 F6000
G1 F1800 E0.5
;bead-support
G1 X107.079 Y85.105 F3600 E0.492
G1 X107.18 Y85.09 E0.003
G1 X110.149 Y84.931 E0.074
G1 X112.453 Y85.082 E0.058
G1 X87.202 Y99.66 E0.727
G1 X86.825 Y100.44 E0.022
G1 X85.855 Y103.253 E0.074
G1 X85.782 Y103.559 E0.008
G1 X116.526 Y85.809 E0.885
G1 X116.986 Y85.923 E0.012
G1 X119.789 Y86.921 E0.074
G1 X119.867 Y86.96 E0.002
G1 X85.112 Y107.025 E1.002
G1 X85.096 Y107.131 E0.002
G1 X84.93 Y110.102 E0.074
G1 X84.935 Y110.207 E0.003
G1 X122.705 Y88.4 E1.088
G1 X124.129 Y89.292 E0.042
G1 X125.164 Y90.059 E0.032
G1 X85.17 Y113.15 E1.152
G1 X85.439 Y115.022 E0.047
G1 X85.665 Y115.944 E0.024
G1 X105.846 Y104.292 E0.581
G1 X105.875 Y104.267 E0.001
G1 X106.258 Y104.054 E0.011
G1 X127.3 Y91.906 E0.606
G1 X127.92 Y92.468 E0.021
G1 X129.202 Y93.887 E0.048
G1 X112.602 Y103.471 E0.478
G1 X113.733 Y104.005 E0.031
G1 X114.76 Y104.782 E0.032
G1 X115.062 Y105.13 E0.012
G1 X130.802 Y96.042 E0.453
G1 X131.012 Y96.326 E0.009
G1 X132.159 Y98.338 E0.058
G1 X116.533 Y107.36 E0.45
G1 X116.863 Y108.331 E0.025
G1 X117.063 Y109.955 E0.041
G1 X117.047 Y110.142 E0.005
G1 X133.301 Y100.758 E0.468
G1 X133.947 Y102.582 E0.048
G1 X134.137 Y103.354 E0.02
G1 X115.894 Y113.887 E0.526
G1 X115.883 Y113.908
G1 X115.073 Y114.913 E0.032
G1 X114.125 Y115.733 E0.032
G1 X112.696 Y116.528 E0.041
G1 X111.501 Y116.901 E0.031
G1 X110.449 Y117.031 E0.026
G1 X92.157 Y127.591 E0.527
G1 X91.076 Y126.442 E0.039
G1 X90.38 Y125.538 E0.029
G1 X106.62 Y116.162 E0.468
G1 X106.267 Y115.995 E0.009
G1 X105.24 Y115.218 E0.033
G1 X104.466 Y114.326 E0.029
G1 X88.826 Y123.356 E0.45
G1 X87.74 Y121.533 E0.053
G1 X87.508 Y121.038 E0.014
G1 X103.236 Y111.958 E0.453
G1 X103.137 Y111.669 E0.008
G1 X102.937 Y110.045 E0.04
G1 X103.027 Y108.999 E0.027
G1 X86.48 Y118.552 E0.476
G1 F1800 E-0.5
G0 X87.173 Y118.152 F2400
G0 X86.48 Y118.552 F2400
;rapid-leaky
G0 X94.239 Y129.468 F6000
G1 F1800 E0.5
;bead-support
G1 X134.745 Y106.082 F3600 E1.167
G1 X134.937 Y107.427 E0.034
G1 X135.006 Y109.011 E0.039
G1 X96.617 Y131.175 E1.106
G1 X98.865 Y132.462 E0.065
G1 X99.347 Y132.678 E0.013
G1 X134.972 Y112.11 E1.026
G1 X134.957 Y112.37 E0.007
G1 X134.5 Y115.313 E0.074
G1 X134.455 Y115.487 E0.004
G1 X102.563 Y133.9 E0.919
G1 X103.489 Y134.209 E0.024
G1 X105.42 Y134.647 E0.05
G1 X106.365 Y134.785 E0.024
G1 X133.26 Y119.257 E0.774
G1 X132.98 Y120.019 E0.021
G1 X132.121 Y121.796 E0.049
G1 X130.988 Y123.648 E0.054
G1 X111.295 Y135.017 E0.567
G1 X112.323 Y134.962 E0.026
G1 X114.286 Y134.701 E0.049
G1 X117.182 Y134.019 E0.074
G1 X119.052 Y133.378 E0.05
G1 X121.036 Y132.472 E0.054
G1 X124.126 Y130.688 E0.089
G1 F1800 E-0.5
G0 X123.433 Y131.088 F2400
G0 X124.126 Y130.688 F2400
;Layer : 3 of 173
;rapid-leaky
G0 Z0.5 F6000
G1 F1800 E0.5
;bead-support
G1 X121.036 Y132.472 F3600 E0.089
G1 X119.052 Y133.378 E0.055
G1 X117.182 Y134.019 E0.049
G1 X114.286 Y134.701 E0.074
G1 X112.323 Y134.962 E0.05
G1 X111.295 Y135.017 E0.025
G1 X130.988 Y123.648 E0.567
G1 X132.121 Y121.796 E0.055
G1 X132.98 Y120.019 E0.049
G1 X133.26 Y119.257 E0.02
G1 X106.365 Y134.785 E0.775
G1 X105.42 Y134.647 E0.024
G1 X103.489 Y134.209 E0.049
G1 X102.563 Y133.9 E0.024
G1 X134.455 Y115.487 E0.919
G1 X134.5 Y115.313 E0.004
G1 X134.957 Y112.37 E0.075
G1 X134.972 Y112.11 E0.006
G1 X99.347 Y132.678 E1.026
G1 X98.865 Y132.462 E0.014
G1 X96.617 Y131.175 E0.064
G1 X135.006 Y109.011 E1.106
G1 X134.937 Y107.427 E0.039
G1 X134.745 Y106.082 E0.034
G1 X94.239 Y129.468 E1.167
G1 F1800 E-0.5
G0 X94.932 Y129.068 F2400
G0 X94.239 Y129.468 F2400
;rapid-leaky
G0 X86.48 Y118.552 F6000
G1 F1800 E0.5
;bead-support
G1 X103.027 Y108.999 F3600 E0.477
G1 X102.937 Y110.045 E0.026
G1 X103.137 Y111.669 E0.041
G1 X103.236 Y111.958 E0.007
G1 X87.508 Y121.038 E0.453
G1 X87.74 Y121.533 E0.014
G1 X88.826 Y123.356 E0.053
G1 X104.466 Y114.326 E0.45
G1 X105.24 Y115.218 E0.03
G1 X106.267 Y115.995 E0.032
G1 X106.62 Y116.162 E0.01
G1 X90.38 Y125.538 E0.467
G1 X91.076 Y126.442 E0.029
G1 X92.157 Y127.591 E0.039
G1 X110.449 Y117.031 E0.527
G1 X111.501 Y116.901 E0.027
G1 X112.696 Y116.528 E0.031
G1 X114.125 Y115.733 E0.041
G1 X115.073 Y114.913 E0.031
G1 X115.883 Y113.908 E0.032
G1 X115.894 Y113.887 E0.001
G1 X134.137 Y103.354 E0.525
G1 X133.947 Y102.582 E0.02
G1 X133.301 Y100.758 E0.048
G1 X117.047 Y110.142 E0.468
G1 X117.063 Y109.955 E0.005
G1 X116.863 Y108.331 E0.041
G1 X116.533 Y107.36 E0.026
G1 X132.159 Y98.338 E0.45
G1 X131.012 Y96.326 E0.057
G1 X130.802 Y96.042 E0.009
G1 X115.062 Y105.13 E0.454
G1 X114.76 Y104.782 E0.011
G1 X113.733 Y104.005 E0.032
G1 X112.602 Y103.471 E0.031
G1 X129.202 Y93.887 E0.479
G1 X127.92 Y92.468 E0.047
G1 X127.3 Y91.906 E0.021
G1 X106.258 Y104.054 E0.606
G1 X105.875 Y104.267 E0.011
G1 X105.846 Y104.292 E0.001
G1 X85.665 Y115.944 E0.581
G1 X85.439 Y115.022 E0.024
G1 X85.17 Y113.15 E0.047
G1 X125.164 Y90.059 E1.152
G1 X124.129 Y89.292 E0.033
G1 X122.705 Y88.4 E0.041
G1 X84.935 Y110.207 E1.088
G1 X84.93 Y110.102 E0.003
G1 X85.096 Y107.131 E0.074
G1 X85.112 Y107.025 E0.003
G1 X119.867 Y86.96 E1.001
G1 X119.789 Y86.921 E0.002
G1 X116.986 Y85.923 E0.074
G1 X116.526 Y85.809 E0.012
G1 X85.782 Y103.559 E0.886
G1 X85.855 Y103.253 E0.008
G1 X86.825 Y100.44 E0.074
G1 X87.202 Y99.66 E0.021
G1 X112.453 Y85.082 E0.728
G1 X110.149 Y84.931 E0.057
G1 X107.18 Y85.09 E0.074
G1 X107.079 Y85.105 E0.003
G1 X89.989 Y94.972 E0.492
G1 F1800 E-0.5
G0 X90.682 Y94.572 F2400
G0 X89.989 Y94.972 F2400
;rapid-dry
G0 X104.688 Y108.04 F6000
G1 F1800 E0.5
;bead-support
G1 X110.964 Y104.416 F3600 E0.181
G1 X111.001 Y104.42 E0.001
G1 X111.893 Y104.657 E0.023
G1 X112.729 Y105.032 E0.023
G1 X113.84 Y105.835 E0.034
G1 X110.926 Y107.518 E0.084
G1 X110.987 Y107.529 E0.002
G1 X111.858 Y108.094 E0.025
G1 X112.45 Y108.959 E0.027
G1 X112.591 Y109.636 E0.017
G1 X115.309 Y108.066 E0.078
G1 X115.489 Y108.585 E0.014
G1 X115.668 Y109.965 E0.035
G1 X115.546 Y111.009 E0.026
G1 X108.094 Y115.311 E0.214
G1 X107.059 Y114.845 E0.029
G1 X106.314 Y114.307 E0.023
G1 X105.668 Y113.657 E0.022
G1 X105.657 Y113.639 E0.001
G1 X108.385 Y112.064 E0.079
G1 X108.142 Y111.906 E0.007
G1 X107.55 Y111.041 E0.026
G1 X107.339 Y110.025 E0.026
G1 X107.431 Y109.535 E0.012
G1 X104.478 Y111.24 E0.085
G1 F1800 E-0.5
G0 X105.17 Y110.84 F2400
G0 X104.478 Y111.24 F2400
;Layer : 4 of 173
;rapid-leaky
G0 X106.353 Y114.335 Z0.65 F6000
G1 F1800 E0.5
;bead-support
G1 X104.434 Y111.012 F3600 E0.096
G1 X104.388 Y110.658 E0.009
G1 X104.338 Y110.266 E0.01
G1 X104.362 Y109.553 E0.018
G1 X107.543 Y115.063 E0.158
G1 X107.695 Y115.131 E0.005
G1 X108.33 Y115.417 E0.017
G1 X108.544 Y115.464 E0.005
G1 X104.56 Y108.563 E0.199
G1 X104.699 Y107.993 E0.015
G1 X104.835 Y107.706 E0.008
G1 X109.407 Y115.626 E0.228
G1 X110.151 Y115.667 E0.018
G1 X110.198 Y115.662 E0.002
G1 X105.205 Y107.014 E0.249
G1 X105.642 Y106.437 E0.018
G1 X107.431 Y109.536 E0.089
G1 X107.435 Y109.516 E0.001
G1 X107.531 Y109.007 E0.012
G1 X107.724 Y108.711 E0.009
G1 X106.109 Y105.913 E0.081
G1 X106.634 Y105.489 E0.017
G1 X108.146 Y108.107 E0.075
G1 X108.503 Y107.862 E0.011
G1 X108.697 Y107.729 E0.006
G1 X107.178 Y105.098 E0.076
G1 X107.771 Y104.792 E0.016
G1 X109.32 Y107.474 E0.077
G1 X109.966 Y107.339 E0.017
G1 X110.017 Y107.348 E0.001
G1 X108.415 Y104.574 E0.08
G1 X108.695 Y104.484 E0.008
G1 X109.107 Y104.439 E0.01
G1 X110.88 Y107.509 E0.088
G1 X110.987 Y107.529 E0.003
G1 X111.858 Y108.094 E0.026
G1 X112.45 Y108.959 E0.026
G1 X112.661 Y109.975 E0.026
G1 X112.573 Y110.442 E0.012
G1 X114.366 Y113.548 E0.089
G1 X113.914 Y114.099 E0.018
G1 X112.284 Y111.276 E0.081
G1 X111.904 Y111.859 E0.018
G1 X111.866 Y111.885 E0.001
G1 X113.376 Y114.5 E0.075
G1 X112.838 Y114.9 E0.017
G1 X111.315 Y112.263 E0.076
G1 X111.041 Y112.45 E0.008
G1 X110.695 Y112.523 E0.009
G1 X112.236 Y115.192 E0.077
G1 X111.96 Y115.321 E0.007
G1 X111.598 Y115.421 E0.01
G1 X110.002 Y112.655 E0.08
G1 X109.139 Y112.494 E0.021
G1 X110.922 Y115.583 E0.089
G1 F1800 E-0.5
G0 X110.522 Y114.89 F2400
G0 X110.922 Y115.583 F2400
;rapid-leaky
G0 X114.813 Y112.989 F6000
G1 F1800 E0.5
;bead-support
G1 X109.832 Y104.36 F3600 E0.249
G1 X110.087 Y104.333 E0.006
G1 X110.614 Y104.383 E0.014
G1 X115.179 Y112.289 E0.227
G1 X115.217 Y112.216 E0.002
G1 X115.469 Y111.458 E0.02
G1 X111.479 Y104.547 E0.199
G1 X111.893 Y104.657 E0.011
G1 X112.439 Y104.901 E0.015
G1 X112.458 Y104.91
G1 X115.619 Y110.384 E0.158
G1 X115.653 Y110.091 E0.007
G1 X115.668 Y109.965 E0.004
G1 X115.529 Y108.896 E0.027
G1 X113.706 Y105.738 E0.09
G1 F1800 E-0.5
G0 X114.106 Y106.43 F2400
G0 X113.706 Y105.738 F2400
;rapid-dry
G0 X89.989 Y94.972 F6000
G1 F1800 E0.5
;bead-support
G1 X107.079 Y85.105 F3600 E0.493
G1 X107.18 Y85.09 E0.002
G1 X110.149 Y84.931 E0.074
G1 X112.453 Y85.082 E0.058
G1 X87.202 Y99.66 E0.727
G1 X86.825 Y100.44 E0.022
G1 X86.386 Y101.713 E0.034
G1 X85.855 Y103.253 E0.04
G1 X85.782 Y103.559 E0.008
G1 X116.526 Y85.809 E0.886
G1 X116.986 Y85.923 E0.011
G1 X119.789 Y86.921 E0.075
G1 X119.867 Y86.96 E0.002
G1 X85.112 Y107.025 E1.001
G1 X85.096 Y107.131 E0.003
G1 X84.93 Y110.102 E0.074
G1 X84.935 Y110.207 E0.002
G1 X122.705 Y88.4 E1.088
G1 X124.129 Y89.292 E0.042
G1 X125.164 Y90.059 E0.032
G1 X85.17 Y113.15 E1.152
G1 X85.439 Y115.022 E0.048
G1 X85.665 Y115.944 E0.023
G1 X105.846 Y104.292 E0.582
G1 X105.875 Y104.267
G1 X106.258 Y104.054 E0.011
G1 X127.3 Y91.906 E0.607
G1 X127.92 Y92.468 E0.02
G1 X129.202 Y93.887 E0.048
G1 X112.602 Y103.471 E0.478
G1 X113.733 Y104.005 E0.031
G1 X114.76 Y104.782 E0.033
G1 X115.062 Y105.13 E0.011
G1 X130.802 Y96.042 E0.453
G1 X131.012 Y96.326 E0.009
G1 X132.159 Y98.338 E0.058
G1 X116.533 Y107.36 E0.45
G1 X116.863 Y108.331 E0.026
G1 X117.063 Y109.955 E0.041
G1 X117.047 Y110.142 E0.004
G1 X133.301 Y100.758 E0.468
G1 X133.947 Y102.582 E0.049
G1 X134.137 Y103.354 E0.02
G1 X115.894 Y113.887 E0.525
G1 X115.883 Y113.908 E0.001
G1 X115.073 Y114.913 E0.032
G1 X114.125 Y115.733 E0.031
G1 X112.696 Y116.528 E0.041
G1 X111.501 Y116.901 E0.031
G1 X110.449 Y117.031 E0.027
G1 X92.157 Y127.591 E0.526
G1 X91.076 Y126.442 E0.04
G1 X90.38 Y125.538 E0.028
G1 X106.62 Y116.162 E0.468
G1 X106.267 Y115.995 E0.01
G1 X105.24 Y115.218 E0.032
G1 X104.466 Y114.326 E0.029
G1 X88.826 Y123.356 E0.451
G1 X87.74 Y121.533 E0.053
G1 X87.508 Y121.038 E0.013
G1 X103.236 Y111.958 E0.453
G1 X103.137 Y111.669 E0.008
G1 X102.937 Y110.045 E0.041
G1 X103.027 Y108.999 E0.026
G1 X86.48 Y118.552 E0.477
G1 F1800 E-0.5
G0 X87.173 Y118.152 F2400
G0 X86.48 Y118.552 F2400
;rapid-leaky
G0 X94.239 Y129.468 F6000
G1 F1800 E0.5
;bead-support
G1 X134.745 Y106.082 F3600 E1.166
G1 X134.937 Y107.427 E0.034
G1 X135.006 Y109.011 E0.04
G1 X96.617 Y131.175 E1.106
G1 X98.865 Y132.462 E0.064
G1 X99.347 Y132.678 E0.013
G1 X134.972 Y112.11 E1.027
G1 X134.957 Y112.37 E0.006
G1 X134.5 Y115.313 E0.074
G1 X134.455 Y115.487 E0.005
G1 X102.563 Y133.9 E0.918
G1 X103.489 Y134.209 E0.025
G1 X105.42 Y134.647 E0.049
G1 X106.365 Y134.785 E0.024
G1 X133.26 Y119.257 E0.775
G1 X132.98 Y120.019 E0.02
G1 X132.121 Y121.796 E0.049
G1 X130.988 Y123.648 E0.054
G1 X111.295 Y135.017 E0.568
G1 X112.323 Y134.962 E0.025
G1 X114.286 Y134.701 E0.05
G1 X117.182 Y134.019 E0.074
G1 X119.052 Y133.378 E0.049
G1 X121.036 Y132.472 E0.055
G1 X124.126 Y130.688 E0.089
G1 F1800 E-0.5
G0 X123.433 Y131.088 F2400
G0 X124.126 Y130.688 F2400
;Layer : 5 of 173
;rapid-leaky
G0 Y130.689 Z0.8 F6000
G1 F1800 E0.5
;bead-support
G1 X121.036 Y132.472 F3600 E0.089
G1 X119.052 Y133.378 E0.054
G1 X117.182 Y134.019 E0.049
G1 X114.286 Y134.701 E0.074
G1 X112.323 Y134.962 E0.05
G1 X111.295 Y135.017 E0.026
G1 X130.988 Y123.648 E0.567
G1 X132.121 Y121.796 E0.054
G1 X132.98 Y120.019 E0.049
G1 X133.26 Y119.257 E0.02
G1 X106.365 Y134.785 E0.775
G1 X105.42 Y134.647 E0.024
G1 X103.489 Y134.209 E0.049
G1 X102.563 Y133.9 E0.025
G1 X134.455 Y115.487 E0.918
G1 X134.5 Y115.313 E0.005
G1 X134.957 Y112.37 E0.074
G1 X134.972 Y112.11 E0.007
G1 X99.347 Y132.678 E1.026
G1 X98.865 Y132.462 E0.013
G1 X96.617 Y131.175 E0.065
G1 X135.006 Y109.011 E1.105
G1 X134.937 Y107.427 E0.04
G1 X134.745 Y106.082 E0.034
G1 X94.239 Y129.468 E1.166
G1 F1800 E-0.5
G0 X94.932 Y129.068 F2400
G0 X94.239 Y129.468 F2400
;rapid-leaky
G0 X86.48 Y118.552 F6000
G1 F1800 E0.5
;bead-support
G1 X103.027 Y108.999 F3600 E0.477
G1 X102.937 Y110.045 E0.026
G1 X103.137 Y111.669 E0.041
G1 X103.236 Y111.958 E0.008
G1 X87.508 Y121.038 E0.453
G1 X87.74 Y121.533 E0.013
G1 X88.826 Y123.356 E0.053
G1 X104.466 Y114.326 E0.451
G1 X105.24 Y115.218 E0.029
G1 X106.267 Y115.995 E0.032
G1 X106.62 Y116.162 E0.01
G1 X90.38 Y125.538 E0.468
G1 X91.076 Y126.442 E0.028
G1 X92.157 Y127.591 E0.04
G1 X110.449 Y117.031 E0.527
G1 X111.501 Y116.901 E0.026
G1 X112.696 Y116.528 E0.031
G1 X114.125 Y115.733 E0.041
G1 X115.073 Y114.913 E0.031
G1 X115.883 Y113.908 E0.032
G1 X115.894 Y113.887 E0.001
G1 X134.137 Y103.354 E0.526
G1 X133.947 Y102.582 E0.019
G1 X133.301 Y100.758 E0.049
G1 X117.047 Y110.142 E0.468
G1 X117.063 Y109.955 E0.005
G1 X116.863 Y108.331 E0.04
G1 X116.533 Y107.36 E0.026
G1 X132.159 Y98.338 E0.45
G1 X131.012 Y96.326 E0.058
G1 X130.802 Y96.042 E0.009
G1 X115.062 Y105.13 E0.453
G1 X114.76 Y104.782 E0.012
G1 X113.733 Y104.005 E0.032
G1 X112.602 Y103.471 E0.031
G1 X129.202 Y93.887 E0.478
G1 X127.92 Y92.468 E0.048
G1 X127.3 Y91.906 E0.021
G1 X106.258 Y104.054 E0.606
G1 X105.875 Y104.267 E0.011
G1 X105.846 Y104.292 E0.001
G1 X85.665 Y115.944 E0.581
G1 X85.439 Y115.022 E0.024
G1 X85.17 Y113.15 E0.047
G1 X125.164 Y90.059 E1.152
G1 X125.046 Y89.971 E0.003
G1 X124.129 Y89.292 E0.029
G1 X122.705 Y88.4 E0.042
G1 X84.935 Y110.207 E1.088
G1 X84.93 Y110.102 E0.002
G1 X85.096 Y107.131 E0.075
G1 X85.112 Y107.025 E0.002
G1 X119.867 Y86.96 E1.001
G1 X119.789 Y86.921 E0.002
G1 X116.986 Y85.923 E0.075
G1 X116.526 Y85.809 E0.011
G1 X85.782 Y103.559 E0.886
G1 X85.855 Y103.253 E0.008
G1 X86.349 Y101.822 E0.038
G1 X86.825 Y100.44 E0.036
G1 X87.202 Y99.66 E0.022
G1 X112.453 Y85.082 E0.727
G1 X109.971 Y84.919 E0.062
G1 Y84.94 E0.001
G1 X107.18 Y85.09 E0.069
G1 X107.079 Y85.105 E0.003
G1 X89.989 Y94.972 E0.492
G1 F1800 E-0.5
G0 X90.682 Y94.572 F2400
G0 X89.989 Y94.972 F2400
;Layer : 6 of 173
;rapid-leaky
G0 Z0.95 F6000
G1 F1800 E0.5
;bead-support
G1 X107.079 Y85.105 F3600 E0.492
G1 X107.18 Y85.09 E0.003
G1 X110.149 Y84.931 E0.074
G1 X112.453 Y85.082 E0.058
G1 X87.202 Y99.66 E0.727
G1 X86.825 Y100.44 E0.022
G1 X86.355 Y101.804 E0.036
G1 X85.855 Y103.253 E0.038
G1 X85.782 Y103.559 E0.008
G1 X116.526 Y85.809 E0.885
G1 X116.986 Y85.923 E0.012
G1 X119.789 Y86.921 E0.074
G1 X119.867 Y86.96 E0.002
G1 X85.112 Y107.025 E1.001
G1 X85.096 Y107.131 E0.003
G1 X84.93 Y110.102 E0.074
G1 X84.935 Y110.207 E0.003
G1 X122.705 Y88.4 E1.088
G1 X124.129 Y89.292 E0.042
G1 X124.787 Y89.78 E0.02
G1 X125.164 Y90.059 E0.012
G1 X85.17 Y113.15 E1.152
G1 X85.439 Y115.022 E0.047
G1 X85.665 Y115.944 E0.024
G1 X105.846 Y104.292 E0.581
G1 X105.875 Y104.267 E0.001
G1 X106.258 Y104.054 E0.011
G1 X127.3 Y91.906 E0.606
G1 X127.92 Y92.468 E0.021
G1 X129.202 Y93.887 E0.048
G1 X112.602 Y103.471 E0.478
G1 X113.733 Y104.005 E0.031
G1 X114.76 Y104.782 E0.032
G1 X115.062 Y105.13 E0.012
G1 X130.802 Y96.042 E0.453
G1 X131.012 Y96.326 E0.009
G1 X132.159 Y98.338 E0.058
G1 X116.533 Y107.36 E0.45
G1 X116.863 Y108.331 E0.025
G1 X117.063 Y109.955 E0.041
G1 X117.047 Y110.142 E0.005
G1 X133.301 Y100.758 E0.468
G1 X133.947 Y102.582 E0.048
G1 X134.137 Y103.354 E0.02
G1 X115.894 Y113.887 E0.526
G1 X115.883 Y113.908
G1 X115.073 Y114.913 E0.032
G1 X114.125 Y115.733 E0.032
G1 X112.696 Y116.528 E0.041
G1 X111.501 Y116.901 E0.031
G1 X110.449 Y117.031 E0.026
G1 X92.157 Y127.591 E0.527
G1 X91.076 Y126.442 E0.039
G1 X90.38 Y125.538 E0.029
G1 X106.62 Y116.162 E0.468
G1 X106.267 Y115.995 E0.009
G1 X105.24 Y115.218 E0.033
G1 X104.466 Y114.326 E0.029
G1 X88.826 Y123.356 E0.45
G1 X87.74 Y121.533 E0.053
G1 X87.508 Y121.038 E0.014
G1 X103.236 Y111.958 E0.453
G1 X103.137 Y111.669 E0.008
G1 X102.937 Y110.045 E0.04
G1 X103.027 Y108.999 E0.027
G1 X86.48 Y118.552 E0.476
G1 F1800 E-0.5
G0 X87.173 Y118.152 F2400
G0 X86.48 Y118.552 F2400
;rapid-leaky
G0 X94.239 Y129.468 F6000
G1 F1800 E0.5
;bead-support
G1 X134.745 Y106.082 F3600 E1.167
G1 X134.937 Y107.427 E0.034
G1 X135.006 Y109.011 E0.039
G1 X96.617 Y131.175 E1.106
G1 X98.865 Y132.462 E0.065
G1 X99.347 Y132.678 E0.013
G1 X134.972 Y112.11 E1.026
G1 X134.957 Y112.37 E0.007
G1 X134.5 Y115.313 E0.074
G1 X134.455 Y115.487 E0.004
G1 X102.563 Y133.9 E0.919
G1 X103.489 Y134.209 E0.024
G1 X105.42 Y134.647 E0.05
G1 X106.365 Y134.785 E0.024
G1 X133.26 Y119.257 E0.774
G1 X132.98 Y120.019 E0.021
G1 X132.121 Y121.796 E0.049
G1 X130.988 Y123.648 E0.054
G1 X111.295 Y135.017 E0.567
G1 X112.323 Y134.962 E0.026
G1 X114.286 Y134.701 E0.049
G1 X117.182 Y134.019 E0.074
G1 X119.052 Y133.378 E0.05
G1 X121.036 Y132.472 E0.054
G1 X124.126 Y130.688 E0.089
G1 F1800 E-0.5
G0 X123.433 Y131.088 F2400
G0 X124.126 Y130.688 F2400
;Layer : 7 of 173
;rapid-leaky
G0 Y130.689 Z1.1 F6000
G1 F1800 E0.5
;bead-support
G1 X121.036 Y132.472 F3600 E0.089
G1 X119.052 Y133.378 E0.055
G1 X117.182 Y134.019 E0.049
G1 X114.286 Y134.701 E0.074
G1 X112.323 Y134.962 E0.049
G1 X111.295 Y135.017 E0.026
G1 X130.988 Y123.648 E0.567
G1 X132.121 Y121.796 E0.055
G1 X132.98 Y120.019 E0.049
G1 X133.26 Y119.257 E0.02
G1 X106.365 Y134.785 E0.775
G1 X105.42 Y134.647 E0.024
G1 X103.489 Y134.209 E0.049
G1 X102.563 Y133.9 E0.024
G1 X134.455 Y115.487 E0.919
G1 X134.5 Y115.313 E0.004
G1 X134.957 Y112.37 E0.075
G1 X134.972 Y112.11 E0.006
G1 X99.347 Y132.678 E1.026
G1 X98.865 Y132.462 E0.014
G1 X96.617 Y131.175 E0.064
G1 X135.006 Y109.011 E1.106
G1 X134.937 Y107.427 E0.039
G1 X134.745 Y106.082 E0.034
G1 X94.239 Y129.468 E1.167
G1 F1800 E-0.5
G0 X94.932 Y129.068 F2400
G0 X94.239 Y129.468 F2400
;rapid-leaky
G0 X86.48 Y118.552 F6000
G1 F1800 E0.5
;bead-support
G1 X103.027 Y108.999 F3600 E0.477
G1 X102.937 Y110.045 E0.026
G1 X103.137 Y111.669 E0.041
G1 X103.236 Y111.958 E0.007
G1 X87.508 Y121.038 E0.453
G1 X87.74 Y121.533 E0.014
G1 X88.826 Y123.356 E0.053
G1 X104.466 Y114.326 E0.45
G1 X105.24 Y115.218 E0.03
G1 X106.267 Y115.995 E0.032
G1 X106.62 Y116.162 E0.01
G1 X90.38 Y125.538 E0.467
G1 X91.076 Y126.442 E0.029
G1 X92.157 Y127.591 E0.039
G1 X110.449 Y117.031 E0.527
G1 X111.501 Y116.901 E0.027
G1 X112.696 Y116.528 E0.031
G1 X114.125 Y115.733 E0.041
G1 X115.073 Y114.913 E0.031
G1 X115.883 Y113.908 E0.032
G1 X115.894 Y113.887 E0.001
G1 X134.137 Y103.354 E0.525
G1 X133.961 Y102.64 E0.019
G1 X133.947 Y102.582 E0.001
G1 X133.301 Y100.758 E0.048
G1 X117.047 Y110.142 E0.468
G1 X117.063 Y109.955 E0.005
G1 X116.863 Y108.331 E0.041
G1 X116.533 Y107.36 E0.026
G1 X132.159 Y98.338 E0.45
G1 X131.012 Y96.326 E0.057
G1 X130.802 Y96.042 E0.009
G1 X115.062 Y105.13 E0.454
G1 X114.76 Y104.782 E0.011
G1 X113.733 Y104.005 E0.032
G1 X112.602 Y103.471 E0.031
G1 X129.202 Y93.887 E0.479
G1 X127.92 Y92.468 E0.047
G1 X127.3 Y91.906 E0.021
G1 X106.258 Y104.054 E0.606
G1 X105.875 Y104.267 E0.011
G1 X105.846 Y104.292 E0.001
G1 X85.665 Y115.944 E0.581
G1 X85.439 Y115.022 E0.024
G1 X85.17 Y113.15 E0.047
G1 X125.164 Y90.059 E1.152
G1 X124.129 Y89.292 E0.032
G1 X122.705 Y88.4 E0.042
G1 X84.935 Y110.207 E1.088
G1 X84.93 Y110.102 E0.003
G1 X85.096 Y107.131 E0.074
G1 X85.112 Y107.025 E0.003
G1 X119.867 Y86.96 E1.001
G1 X119.789 Y86.921 E0.002
G1 X116.986 Y85.923 E0.074
G1 X116.526 Y85.809 E0.012
G1 X85.782 Y103.559 E0.886
G1 X85.855 Y103.253 E0.008
G1 X86.257 Y102.087 E0.03
G1 X86.825 Y100.44 E0.044
G1 X87.202 Y99.66 E0.021
G1 X112.453 Y85.082 E0.728
G1 X110.244 Y84.937 E0.055
G1 X110.218 Y84.939 E0.001
G1 Y84.935
G1 Y84.927
G1 X107.18 Y85.09 E0.076
G1 X107.079 Y85.105 E0.002
G1 X89.989 Y94.972 E0.493
G1 F1800 E-0.5
G0 X90.682 Y94.572 F2400
G0 X89.989 Y94.972 F2400
;rapid-dry
G0 X112.432 Y109.319 F6000
G1 F1800 E0.5
;bead-perimeter_outer
G1 X112.321 Y109.004 E0.008
G1 X112.172 Y108.713 E0.008
G1 X111.986 Y108.44 E0.008
G1 X111.763 Y108.192 E0.009
G1 X111.514 Y107.979 E0.008
G1 X111.238 Y107.798 E0.008
G1 X110.936 Y107.655 E0.008
G1 X110.622 Y107.553 E0.009
G1 X110.301 Y107.493 E0.008
G1 X109.969 Y107.475 E0.008
G1 X109.642 Y107.5 E0.008
G1 X109.319 Y107.568 E0.008
G1 X109.004 Y107.679 E0.009
G1 X108.713 Y107.828 E0.008
G1 X108.44 Y108.014 E0.008
G1 X108.192 Y108.237 E0.008
G1 X107.979 Y108.486 E0.009
G1 X107.798 Y108.762 E0.008
G1 X107.655 Y109.064 E0.008
G1 X107.553 Y109.378 E0.008
G1 X107.493 Y109.699 E0.009
G1 X107.475 Y110.031 E0.008
G1 X107.5 Y110.358 E0.008
G1 X107.568 Y110.681 E0.008
G1 X107.679 Y110.996 E0.009
G1 X107.828 Y111.287 E0.008
G1 X108.014 Y111.56 E0.008
G1 X108.237 Y111.808 E0.008
G1 X108.486 Y112.021 E0.009
G1 X108.762 Y112.202 E0.008
G1 X109.064 Y112.345 E0.008
G1 X109.378 Y112.447 E0.008
G1 X109.699 Y112.507 E0.008
G1 X110.031 Y112.525 E0.009
G1 X110.358 Y112.5 E0.008
G1 X110.681 Y112.432 E0.008
G1 X110.996 Y112.321 E0.009
G1 X111.287 Y112.172 E0.008
G1 X111.56 Y111.986 E0.008
G1 X111.808 Y111.763 E0.008
G1 X112.02 Y111.514 E0.008
G1 X112.202 Y111.238 E0.009
G1 X112.345 Y110.936 E0.008
G1 X112.447 Y110.622 E0.008
G1 X112.507 Y110.301 E0.008
G1 X112.525 Y109.969 E0.009
G1 X112.5 Y109.642 E0.008
G1 X112.432 Y109.319 E0.008
G1 E-0.5
G0 X112.321 Y109.004 F2400
G0 X112.172 Y108.713 F2400
G0 X112.094 Y108.598 F2400
G0 X112.172 Y108.713 F2400
G0 X112.321 Y109.004 F2400
G0 X112.432 Y109.319 F2400
;rapid-leaky
G0 X112.779 Y109.221 F6000
G1 F1800 E0.5
;bead-perimeter_inner
G1 X112.653 Y108.862 F2400 E0.01
G1 X112.482 Y108.528 E0.009
G1 X112.269 Y108.218 E0.009
G1 X112.015 Y107.934 E0.01
G1 X111.731 Y107.69 E0.009
G1 X111.415 Y107.483 E0.01
G1 X111.07 Y107.32 E0.009
G1 X110.711 Y107.203 E0.01
G1 X110.344 Y107.135 E0.009
G1 X109.965 Y107.114 E0.009
G1 X109.59 Y107.142 E0.01
G1 X109.221 Y107.221 E0.009
G1 X108.862 Y107.347 E0.01
G1 X108.528 Y107.518 E0.009
G1 X108.218 Y107.731 E0.009
G1 X107.934 Y107.985 E0.01
G1 X107.69 Y108.269 E0.009
G1 X107.483 Y108.585 E0.01
G1 X107.32 Y108.93 E0.009
G1 X107.203 Y109.289 E0.01
G1 X107.135 Y109.656 E0.009
G1 X107.114 Y110.035 E0.009
G1 X107.142 Y110.41 E0.01
G1 X107.221 Y110.779 E0.009
G1 X107.347 Y111.138 E0.01
G1 X107.518 Y111.472 E0.009
G1 X107.731 Y111.782 E0.009
G1 X107.985 Y112.066 E0.01
G1 X108.269 Y112.31 E0.009
G1 X108.585 Y112.517 E0.01
G1 X108.93 Y112.68 E0.009
G1 X109.289 Y112.797 E0.01
G1 X109.656 Y112.865 E0.009
G1 X110.035 Y112.886 E0.009
G1 X110.41 Y112.858 E0.01
G1 X110.779 Y112.779 E0.009
G1 X111.138 Y112.653 E0.01
G1 X111.472 Y112.482 E0.009
G1 X111.782 Y112.269 E0.009
G1 X112.067 Y112.015 E0.01
G1 X112.309 Y111.731 E0.009
G1 X112.516 Y111.415 E0.01
G1 X112.68 Y111.07 E0.009
G1 X112.797 Y110.711 E0.01
G1 X112.865 Y110.344 E0.009
G1 X112.886 Y109.965 E0.009
G1 X112.858 Y109.59 E0.01
G1 X112.779 Y109.221 E0.009
G1 F1800 E-0.5
G0 X112.653 Y108.862 F2400
G0 X112.482 Y108.528 F2400
G0 X112.457 Y108.492 F2400
G0 X112.482 Y108.528 F2400
G0 X112.653 Y108.862 F2400
G0 X112.779 Y109.221 F2400
;rapid-dry
G0 X115.649 Y108.563 F6000
G1 F1800 E0.5
;bead-perimeter_outer
G1 X115.753 Y109.068 E0.013
G1 X115.803 Y109.449 E0.01
G1 X115.829 Y109.967 E0.013
G1 X115.814 Y110.416 E0.011
G1 X115.754 Y110.93 E0.013
G1 X115.648 Y111.437 E0.013
G1 X115.521 Y111.868 E0.011
G1 X115.386 Y112.225 E0.009
G1 X115.168 Y112.696 E0.013
G1 X114.908 Y113.144 E0.013
G1 X114.651 Y113.513 E0.011
G1 X114.366 Y113.861 E0.012
G1 X114.055 Y114.187 E0.011
G1 X113.668 Y114.53 E0.013
G1 X113.308 Y114.799 E0.011
G1 X112.869 Y115.074 E0.013
G1 X112.408 Y115.308 E0.013
G1 X111.991 Y115.478 E0.011
G1 X111.627 Y115.595 E0.01
G1 X111.123 Y115.72 E0.012
G1 X110.611 Y115.797 E0.013
G1 X110.164 Y115.827 E0.012
G1 X109.646 Y115.818 E0.013
G1 X109.198 Y115.774 E0.011
G1 X108.755 Y115.695 E0.011
G1 X108.319 Y115.581 E0.011
G1 X107.83 Y115.41 E0.013
G1 X107.42 Y115.227 E0.011
G1 X107.025 Y115.011 E0.012
G1 X106.591 Y114.728 E0.012
G1 X106.185 Y114.407 E0.013
G1 X105.857 Y114.1 E0.012
G1 X105.553 Y113.768 E0.011
G1 X105.237 Y113.359 E0.013
G1 X104.958 Y112.922 E0.013
G1 X104.777 Y112.586 E0.009
G1 X104.593 Y112.175 E0.011
G1 X104.421 Y111.686 E0.013
G1 X104.293 Y111.184 E0.013
G1 X104.219 Y110.742 E0.011
G1 X104.177 Y110.225 E0.013
G1 X104.176 Y109.775 E0.012
G1 X104.204 Y109.394 E0.009
G1 X104.28 Y108.881 E0.013
G1 X104.401 Y108.378 E0.013
G1 X104.543 Y107.951 E0.011
G1 X104.717 Y107.537 E0.011
G1 X104.956 Y107.077 E0.013
G1 X105.198 Y106.697 E0.012
G1 X105.466 Y106.336 E0.011
G1 X105.809 Y105.949 E0.013
G1 X106.134 Y105.637 E0.011
G1 X106.536 Y105.312 E0.013
G1 X106.967 Y105.024 E0.013
G1 X107.36 Y104.804 E0.011
G1 X107.706 Y104.642 E0.01
G1 X108.19 Y104.459 E0.012
G1 X108.689 Y104.321 E0.013
G1 X109.13 Y104.237 E0.012
G1 X109.646 Y104.183 E0.012
G1 X110.096 Y104.172 E0.012
G1 X110.481 Y104.193 E0.009
G1 X110.99 Y104.256 E0.013
G1 X111.496 Y104.366 E0.013
G1 X111.99 Y104.522 E0.013
G1 X112.407 Y104.691 E0.011
G1 X112.81 Y104.892 E0.011
G1 X113.195 Y105.125 E0.012
G1 X113.615 Y105.428 E0.013
G1 X113.957 Y105.72 E0.011
G1 X114.321 Y106.088 E0.013
G1 X114.61 Y106.433 E0.011
G1 X114.872 Y106.8 E0.011
G1 X115.103 Y107.185 E0.011
G1 X115.334 Y107.649 E0.013
G1 X115.521 Y108.132 E0.013
G1 X115.649 Y108.563 E0.011
G1 E-0.5
G0 X115.753 Y109.068 F2400
G0 X115.79 Y109.35 F2400
G0 X115.753 Y109.068 F2400
G0 X115.649 Y108.563 F2400
;rapid-leaky
G0 X115.3 Y108.652 F6000
G1 F1800 E0.5
;bead-perimeter_inner
G1 X115.398 Y109.124 F2400 E0.012
G1 X115.444 Y109.481 E0.009
G1 X115.469 Y109.97 E0.013
G1 X115.455 Y110.389 E0.01
G1 X115.399 Y110.872 E0.012
G1 X115.298 Y111.349 E0.012
G1 X115.18 Y111.753 E0.011
G1 X115.053 Y112.086 E0.009
G1 X114.849 Y112.529 E0.012
G1 X114.604 Y112.95 E0.012
G1 X114.364 Y113.296 E0.011
G1 X114.096 Y113.623 E0.01
G1 X113.805 Y113.927 E0.011
G1 X113.44 Y114.25 E0.012
G1 X113.104 Y114.502 E0.01
G1 X112.692 Y114.76 E0.012
G1 X112.258 Y114.98 E0.013
G1 X111.868 Y115.14 E0.01
G1 X111.529 Y115.249 E0.009
G1 X111.053 Y115.366 E0.012
G1 X110.572 Y115.439 E0.012
G1 X110.155 Y115.467 E0.011
G1 X109.666 Y115.458 E0.012
G1 X109.247 Y115.417 E0.01
G1 X108.832 Y115.343 E0.011
G1 X108.424 Y115.236 E0.01
G1 X107.963 Y115.075 E0.013
G1 X107.58 Y114.904 E0.01
G1 X107.209 Y114.702 E0.011
G1 X106.801 Y114.436 E0.012
G1 X106.42 Y114.134 E0.012
G1 X106.114 Y113.847 E0.01
G1 X105.829 Y113.536 E0.011
G1 X105.531 Y113.151 E0.012
G1 X105.268 Y112.739 E0.012
G1 X105.1 Y112.427 E0.009
G1 X104.928 Y112.041 E0.011
G1 X104.766 Y111.582 E0.012
G1 X104.645 Y111.109 E0.012
G1 X104.576 Y110.698 E0.01
G1 X104.537 Y110.21 E0.013
G1 X104.536 Y109.788 E0.01
G1 X104.562 Y109.433 E0.009
G1 X104.633 Y108.95 E0.012
G1 X104.748 Y108.478 E0.012
G1 X104.881 Y108.078 E0.011
G1 X105.043 Y107.69 E0.01
G1 X105.269 Y107.257 E0.012
G1 X105.495 Y106.902 E0.011
G1 X105.746 Y106.563 E0.01
G1 X106.069 Y106.198 E0.013
G1 X106.373 Y105.908 E0.01
G1 X106.75 Y105.602 E0.012
G1 X107.155 Y105.331 E0.012
G1 X107.524 Y105.125 E0.011
G1 X107.846 Y104.974 E0.009
G1 X108.302 Y104.802 E0.012
G1 X108.77 Y104.672 E0.012
G1 X109.183 Y104.593 E0.011
G1 X109.669 Y104.542 E0.012
G1 X110.091 Y104.532 E0.01
G1 X110.456 Y104.552 E0.009
G1 X110.927 Y104.611 E0.012
G1 X111.404 Y104.715 E0.012
G1 X111.868 Y104.861 E0.013
G1 X112.258 Y105.02 E0.01
G1 X112.636 Y105.208 E0.011
G1 X112.996 Y105.426 E0.01
G1 X113.393 Y105.712 E0.012
G1 X113.712 Y105.984 E0.011
G1 X114.054 Y106.33 E0.012
G1 X114.325 Y106.654 E0.01
G1 X114.571 Y106.998 E0.011
G1 X114.788 Y107.358 E0.01
G1 X115.004 Y107.794 E0.013
G1 X115.18 Y108.248 E0.012
G1 X115.3 Y108.652 E0.01
G1 F1800 E-0.5
G0 X115.398 Y109.124 F2400
G0 X115.438 Y109.439 F2400
G0 X115.398 Y109.124 F2400
G0 X115.3 Y108.652 F2400
;rapid-dry
G0 X112.645 Y114.412 F6000
G1 F1800 E0.5
;bead-solid_infill
G1 X114.41 Y112.647 E0.063
G1 X114.564 Y112.382 E0.007
G1 X114.758 Y111.962 E0.012
G1 X114.876 Y111.651 E0.008
G1 X114.891 Y111.6 E0.001
G1 X111.602 Y114.889 E0.116
G1 X111.441 Y114.941 E0.005
G1 X110.991 Y115.052 E0.011
G1 X110.853 Y115.073 E0.004
G1 X115.076 Y110.849 E0.149
G1 X115.083 Y110.82
G1 X115.087 Y110.78 E0.001
G1 X115.136 Y110.366 E0.011
G1 X115.14 Y110.22 E0.003
G1 X110.218 Y115.142 E0.174
G1 E-0.5
G0 X110.784 Y114.576 F2400
G0 X110.218 Y115.142 F2400
;rapid-dry
G0 X104.922 Y110.822 F6000
G1 F1800 E0.5
;bead-solid_infill
G1 X107.103 Y108.64 E0.077
G1 X107.022 Y108.812 E0.005
G1 X106.892 Y109.21 E0.01
G1 X106.845 Y109.464 E0.007
G1 X105.021 Y111.288 E0.064
G1 X105.072 Y111.489 E0.005
G1 X105.154 Y111.721 E0.006
G1 X106.796 Y110.078 E0.058
G1 X106.825 Y110.455 E0.01
G1 X106.853 Y110.587 E0.003
G1 X105.315 Y112.125 E0.054
G1 X105.387 Y112.285 E0.005
G1 X105.504 Y112.502 E0.006
G1 X106.972 Y111.035 E0.052
G1 X107.053 Y111.265 E0.006
G1 X107.139 Y111.433 E0.004
G1 X105.72 Y112.852 E0.05
G1 X105.793 Y112.967 E0.004
G1 X105.857 Y113.05 E0.002
G1 X105.958 Y113.18 E0.005
G1 X107.348 Y111.79 E0.049
G1 X107.478 Y111.98 E0.005
G1 X107.594 Y112.109 E0.005
G1 X106.217 Y113.486 E0.048
G1 X106.222 Y113.491
G1 X106.341 Y113.622 E0.005
G1 X106.499 Y113.77 E0.005
G1 X107.875 Y112.394 E0.049
G1 X108.077 Y112.567 E0.006
G1 X108.192 Y112.642 E0.004
G1 X106.804 Y114.03 E0.049
G1 X106.988 Y114.176 E0.006
G1 X107.131 Y114.269 E0.004
G1 X108.547 Y112.853 E0.05
G1 X108.812 Y112.978 E0.007
G1 X108.944 Y113.021 E0.004
G1 X107.481 Y114.485 E0.051
G1 X107.703 Y114.606 E0.007
G1 X107.722 Y114.617
G1 X107.855 Y114.676 E0.004
G1 X109.39 Y113.141 E0.054
G1 X109.618 Y113.184 E0.006
G1 X109.898 Y113.199 E0.007
G1 X108.258 Y114.839 E0.058
G1 X108.518 Y114.93 E0.006
G1 X108.689 Y114.974 E0.005
G1 X110.497 Y113.166 E0.064
G1 X110.668 Y113.13 E0.004
G1 X110.865 Y113.088 E0.005
G1 X111.265 Y112.948 E0.011
G1 X111.298 Y112.93 E0.001
G1 X109.154 Y115.075 E0.075
G1 X109.291 Y115.1 E0.004
G1 X109.658 Y115.136 E0.009
G1 X115.133 Y109.662 E0.193
G1 X115.125 Y109.51 E0.004
G1 X115.082 Y109.177 E0.008
G1 X115.077 Y109.152 E0.001
G1 X112.922 Y111.306 E0.076
G1 X112.978 Y111.188 E0.003
G1 X113.108 Y110.79 E0.011
G1 X113.161 Y110.502 E0.007
G1 X114.976 Y108.686 E0.064
G1 X114.877 Y108.352 E0.009
G1 X114.84 Y108.257 E0.002
G1 X113.202 Y109.895 E0.058
G1 X113.19 Y109.743 E0.004
G1 X113.175 Y109.545 E0.005
G1 X113.142 Y109.389 E0.004
G1 X114.677 Y107.855 E0.054
G1 X114.591 Y107.683 E0.005
G1 X114.507 Y107.512 E0.004
G1 X114.487 Y107.479 E0.001
G1 X113.021 Y108.945 E0.052
G1 X112.948 Y108.735 E0.006
G1 X112.852 Y108.548 E0.005
G1 X114.271 Y107.129 E0.05
G1 X114.071 Y106.85 E0.008
G1 X114.032 Y106.803 E0.002
G1 X112.641 Y108.194 E0.049
G1 X112.522 Y108.02 E0.005
G1 X112.393 Y107.876 E0.005
G1 X113.771 Y106.498 E0.049
G1 X113.494 Y106.218 E0.009
G1 X113.489 Y106.214 E0.001
G1 X112.11 Y107.593 E0.048
G1 X111.923 Y107.433 E0.006
G1 X111.791 Y107.347 E0.004
G1 X113.184 Y105.954 E0.05
G1 X113.019 Y105.813 E0.005
G1 X112.857 Y105.715 E0.005
G1 X111.434 Y107.138 E0.05
G1 X111.188 Y107.022 E0.007
G1 X111.034 Y106.972 E0.004
G1 X112.504 Y105.502 E0.052
G1 X112.481 Y105.489
G1 X112.128 Y105.312 E0.01
G1 X110.586 Y106.854 E0.054
G1 X110.382 Y106.816 E0.006
G1 X110.075 Y106.799 E0.007
G1 X111.723 Y105.151 E0.058
G1 X111.321 Y105.024 E0.011
G1 X111.291 Y105.018 E0.001
G1 X109.468 Y106.841 E0.064
G1 X109.135 Y106.912 E0.009
G1 X108.735 Y107.053 E0.01
G1 X108.644 Y107.099 E0.003
G1 X110.823 Y104.92 E0.076
G1 X110.428 Y104.871 E0.01
G1 X110.417 Y104.87 E0.001
G1 X110.313 Y104.865 E0.002
G1 X104.866 Y110.311 E0.192
G1 X104.857 Y110.197 E0.003
G1 X104.856 Y109.799 E0.01
G1 X104.86 Y109.752 E0.001
G1 X109.751 Y104.86 E0.173
G1 X109.692 Y104.862 E0.001
G1 X109.69 E0.001
G1 X109.652 Y104.866
G1 X109.229 Y104.91 E0.011
G1 X109.114 Y104.932 E0.003
G1 X104.933 Y109.114 E0.147
G1 X104.948 Y109.011 E0.003
G1 X105.056 Y108.566 E0.012
G1 X105.126 Y108.355 E0.005
G1 X108.358 Y105.123 E0.114
G1 X108.037 Y105.244 E0.009
G1 X107.971 Y105.269 E0.001
G1 X107.67 Y105.41 E0.009
G1 X107.322 Y105.604 E0.01
G1 X107.288 Y105.627 E0.001
G1 X105.63 Y107.285 E0.058
G1 E-0.5
G0 X106.196 Y106.719 F2400
G0 X105.63 Y107.285 F2400
;Layer : 8 of 173
;rapid-dry
G0 X112.432 Y109.319 Z1.25 F6000
G1 F1800 E0.5
;bead-perimeter_outer
G1 X112.322 Y109.007 E0.008
G1 X112.172 Y108.713 E0.009
G1 X111.985 Y108.44 E0.008
G1 X111.756 Y108.185 E0.008
G1 X111.514 Y107.979 E0.008
G1 X111.238 Y107.798 E0.009
G1 X110.927 Y107.652 E0.008
G1 X110.626 Y107.554 E0.008
G1 X110.301 Y107.493 E0.008
G1 X109.972 Y107.475 E0.008
G1 X109.642 Y107.5 E0.009
G1 X109.319 Y107.568 E0.008
G1 X109.007 Y107.678 E0.008
G1 X108.713 Y107.828 E0.008
G1 X108.44 Y108.015 E0.009
G1 X108.185 Y108.244 E0.008
G1 X107.979 Y108.486 E0.008
G1 X107.798 Y108.762 E0.008
G1 X107.652 Y109.073 E0.009
G1 X107.554 Y109.374 E0.008
G1 X107.493 Y109.699 E0.008
G1 X107.475 Y110.028 E0.008
G1 X107.5 Y110.358 E0.009
G1 X107.568 Y110.681 E0.008
G1 X107.678 Y110.993 E0.008
G1 X107.828 Y111.287 E0.008
G1 X108.015 Y111.56 E0.009
G1 X108.244 Y111.815 E0.008
G1 X108.486 Y112.021 E0.008
G1 X108.762 Y112.202 E0.008
G1 X109.073 Y112.348 E0.009
G1 X109.374 Y112.446 E0.008
G1 X109.699 Y112.507 E0.008
G1 X110.028 Y112.525 E0.008
G1 X110.358 Y112.5 E0.009
G1 X110.681 Y112.432 E0.008
G1 X110.993 Y112.322 E0.008
G1 X111.287 Y112.172 E0.008
G1 X111.56 Y111.985 E0.008
G1 X111.815 Y111.756 E0.009
G1 X112.02 Y111.514 E0.008
G1 X112.202 Y111.238 E0.008
G1 X112.348 Y110.927 E0.009
G1 X112.446 Y110.626 E0.008
G1 X112.507 Y110.301 E0.008
G1 X112.525 Y109.972 E0.008
G1 X112.5 Y109.642 E0.008
G1 X112.432 Y109.319 E0.009
G1 E-0.5
G0 X112.322 Y109.007 F2400
G0 X112.172 Y108.713 F2400
G0 X112.094 Y108.598 F2400
G0 X112.172 Y108.713 F2400
G0 X112.322 Y109.007 F2400
G0 X112.432 Y109.319 F2400
;rapid-leaky
G0 X112.779 Y109.221 F6000
G1 F1800 E0.5
;bead-perimeter_inner
G1 X112.654 Y108.865 F2400 E0.009
G1 X112.483 Y108.528 E0.009
G1 X112.269 Y108.217 E0.01
G1 X112.008 Y107.927 E0.01
G1 X111.731 Y107.69 E0.009
G1 X111.414 Y107.483 E0.009
G1 X111.06 Y107.316 E0.01
G1 X110.715 Y107.204 E0.009
G1 X110.345 Y107.135 E0.009
G1 X109.969 Y107.114 E0.01
G1 X109.59 Y107.142 E0.009
G1 X109.221 Y107.221 E0.01
G1 X108.865 Y107.346 E0.009
G1 X108.528 Y107.517 E0.009
G1 X108.217 Y107.731 E0.01
G1 X107.927 Y107.992 E0.01
G1 X107.69 Y108.269 E0.009
G1 X107.483 Y108.586 E0.009
G1 X107.316 Y108.94 E0.01
G1 X107.204 Y109.285 E0.009
G1 X107.135 Y109.655 E0.009
G1 X107.114 Y110.031 E0.01
G1 X107.142 Y110.41 E0.009
G1 X107.221 Y110.779 E0.01
G1 X107.346 Y111.135 E0.009
G1 X107.517 Y111.472 E0.009
G1 X107.731 Y111.783 E0.01
G1 X107.992 Y112.073 E0.01
G1 X108.269 Y112.31 E0.009
G1 X108.586 Y112.517 E0.009
G1 X108.94 Y112.684 E0.01
G1 X109.285 Y112.796 E0.009
G1 X109.656 Y112.865 E0.009
G1 X110.031 Y112.886 E0.01
G1 X110.41 Y112.858 E0.009
G1 X110.779 Y112.779 E0.01
G1 X111.135 Y112.654 E0.009
G1 X111.472 Y112.483 E0.009
G1 X111.783 Y112.269 E0.01
G1 X112.074 Y112.007 E0.01
G1 X112.309 Y111.731 E0.009
G1 X112.517 Y111.414 E0.009
G1 X112.684 Y111.06 E0.01
G1 X112.796 Y110.715 E0.009
G1 X112.865 Y110.345 E0.009
G1 X112.886 Y109.969 E0.01
G1 X112.858 Y109.59 E0.009
G1 X112.779 Y109.221 E0.01
G1 F1800 E-0.5
G0 X112.654 Y108.865 F2400
G0 X112.483 Y108.528 F2400
G0 X112.457 Y108.492 F2400
G0 X112.483 Y108.528 F2400
G0 X112.654 Y108.865 F2400
G0 X112.779 Y109.221 F2400
;rapid-dry
G0 X115.743 Y108.574 F6000
G1 F1800 E0.5
;bead-perimeter_outer
G1 X115.822 Y108.948 E0.009
G1 X115.902 Y109.593 E0.016
G1 X115.917 Y109.974 E0.01
G1 X115.906 Y110.354 E0.009
G1 X115.87 Y110.735 E0.01
G1 X115.755 Y111.375 E0.016
G1 X115.655 Y111.741 E0.01
G1 X115.43 Y112.352 E0.016
G1 X115.267 Y112.697 E0.009
G1 X115.082 Y113.03 E0.01
G1 X114.718 Y113.57 E0.016
G1 X114.479 Y113.867 E0.01
G1 X114.027 Y114.335 E0.016
G1 X113.74 Y114.585 E0.009
G1 X113.436 Y114.817 E0.01
G1 X112.887 Y115.165 E0.016
G1 X112.548 Y115.341 E0.01
G1 X111.946 Y115.588 E0.016
G1 X111.584 Y115.701 E0.009
G1 X111.212 Y115.791 E0.01
G1 X110.569 Y115.89 E0.016
G1 X110.19 Y115.914 E0.01
G1 X109.539 Y115.899 E0.016
G1 X109.16 Y115.858 E0.009
G1 X108.784 Y115.791 E0.01
G1 X108.413 Y115.7 E0.009
G1 X107.798 Y115.492 E0.017
G1 X107.209 Y115.217 E0.016
G1 X106.878 Y115.026 E0.009
G1 X106.56 Y114.815 E0.01
G1 X106.345 Y114.652 E0.007
G1 X105.97 Y114.332 E0.012
G1 X105.519 Y113.865 E0.016
G1 X105.349 Y113.656 E0.007
G1 X105.122 Y113.349 E0.009
G1 X104.916 Y113.029 E0.01
G1 X104.732 Y112.693 E0.009
G1 X104.468 Y112.099 E0.017
G1 X104.344 Y111.739 E0.009
G1 X104.243 Y111.371 E0.01
G1 X104.129 Y110.731 E0.016
G1 X104.094 Y110.352 E0.009
G1 X104.091 Y109.702 E0.017
G1 X104.122 Y109.32 E0.009
G1 X104.178 Y108.945 E0.01
G1 X104.329 Y108.312 E0.016
G1 X104.45 Y107.95 E0.009
G1 X104.708 Y107.354 E0.017
G1 X104.889 Y107.018 E0.009
G1 X105.093 Y106.695 E0.01
G1 X105.484 Y106.176 E0.016
G1 X105.74 Y105.893 E0.009
G1 X106.014 Y105.627 E0.01
G1 X106.305 Y105.38 E0.009
G1 X106.834 Y105.002 E0.017
G1 X107.063 Y104.865 E0.006
G1 X107.505 Y104.636 E0.013
G1 X108.106 Y104.394 E0.016
G1 X108.732 Y104.221 E0.016
G1 X109.107 Y104.151 E0.01
G1 X109.486 Y104.105 E0.009
G1 X110.137 Y104.085 E0.016
G1 X110.517 Y104.105 E0.01
G1 X110.896 Y104.151 E0.009
G1 X111.532 Y104.284 E0.017
G1 X112.149 Y104.488 E0.016
G1 X112.501 Y104.638 E0.009
G1 X112.841 Y104.808 E0.01
G1 X113.393 Y105.152 E0.016
G1 X113.698 Y105.381 E0.009
G1 X113.989 Y105.629 E0.01
G1 X114.443 Y106.092 E0.016
G1 X114.687 Y106.388 E0.01
G1 X114.909 Y106.697 E0.009
G1 X115.241 Y107.255 E0.016
G1 X115.408 Y107.599 E0.01
G1 X115.552 Y107.954 E0.01
G1 X115.743 Y108.574 E0.016
G1 E-0.5
G0 X115.822 Y108.948 F2400
G0 X115.874 Y109.363 F2400
G0 X115.822 Y108.948 F2400
G0 X115.743 Y108.574 F2400
;rapid-leaky
G0 X115.393 Y108.661 F6000
G1 F1800 E0.5
;bead-perimeter_inner
G1 X115.468 Y109.014 F2400 E0.009
G1 X115.543 Y109.618 E0.015
G1 X115.557 Y109.976 E0.009
G1 X115.547 Y110.332 E0.009
G1 X115.513 Y110.693 E0.009
G1 X115.405 Y111.291 E0.015
G1 X115.311 Y111.634 E0.009
G1 X115.1 Y112.208 E0.015
G1 X114.946 Y112.532 E0.009
G1 X114.772 Y112.847 E0.009
G1 X114.431 Y113.353 E0.015
G1 X114.206 Y113.632 E0.009
G1 X113.784 Y114.07 E0.015
G1 X113.512 Y114.306 E0.009
G1 X113.225 Y114.525 E0.009
G1 X112.711 Y114.851 E0.015
G1 X112.393 Y115.016 E0.009
G1 X111.826 Y115.249 E0.016
G1 X111.488 Y115.354 E0.009
G1 X111.138 Y115.439 E0.009
G1 X110.534 Y115.531 E0.015
G1 X110.179 Y115.554 E0.009
G1 X109.568 Y115.54 E0.015
G1 X109.211 Y115.501 E0.009
G1 X108.859 Y115.439 E0.009
G1 X108.508 Y115.353 E0.009
G1 X107.932 Y115.158 E0.015
G1 X107.381 Y114.9 E0.015
G1 X107.068 Y114.72 E0.009
G1 X106.565 Y114.366 E0.015
G1 X106.214 Y114.067 E0.012
G1 X105.791 Y113.629 E0.015
G1 X105.633 Y113.435 E0.006
G1 X105.418 Y113.145 E0.009
G1 X105.226 Y112.845 E0.009
G1 X105.052 Y112.528 E0.009
G1 X104.804 Y111.971 E0.016
G1 X104.689 Y111.634 E0.008
G1 X104.593 Y111.286 E0.009
G1 X104.486 Y110.687 E0.016
G1 X104.453 Y110.331 E0.009
G1 X104.45 Y109.721 E0.015
G1 X104.48 Y109.361 E0.009
G1 X104.532 Y109.011 E0.009
G1 X104.674 Y108.415 E0.015
G1 X104.787 Y108.075 E0.009
G1 X105.029 Y107.516 E0.015
G1 X105.2 Y107.2 E0.009
G1 X105.391 Y106.896 E0.009
G1 X105.758 Y106.41 E0.015
G1 X105.999 Y106.143 E0.009
G1 X106.256 Y105.894 E0.009
G1 X106.531 Y105.66 E0.009
G1 X107.027 Y105.305 E0.015
G1 X107.238 Y105.18 E0.006
G1 X107.66 Y104.961 E0.012
G1 X108.221 Y104.735 E0.015
G1 X108.809 Y104.573 E0.015
G1 X109.162 Y104.507 E0.009
G1 X109.518 Y104.464 E0.009
G1 X110.129 Y104.445 E0.016
G1 X110.486 Y104.464 E0.009
G1 X110.842 Y104.507 E0.009
G1 X111.439 Y104.632 E0.015
G1 X112.017 Y104.823 E0.015
G1 X112.349 Y104.964 E0.009
G1 X112.668 Y105.124 E0.009
G1 X113.185 Y105.447 E0.015
G1 X113.473 Y105.663 E0.009
G1 X113.746 Y105.895 E0.009
G1 X114.172 Y106.329 E0.015
G1 X114.401 Y106.608 E0.009
G1 X114.61 Y106.897 E0.009
G1 X114.922 Y107.421 E0.015
G1 X115.079 Y107.745 E0.009
G1 X115.214 Y108.08 E0.009
G1 X115.393 Y108.661 E0.015
G1 F1800 E-0.5
G0 X115.468 Y109.014 F2400
G0 X115.522 Y109.45 F2400
G0 X115.468 Y109.014 F2400
G0 X115.393 Y108.661 F2400
;rapid-dry
G0 X112.41 Y105.353 F6000
G1 F1800 E0.5
;bead-solid_infill
G1 X114.649 Y107.592 E0.079
G1 X114.786 Y107.875 E0.008
G1 X114.912 Y108.187 E0.009
G1 X115.016 Y108.525 E0.008
G1 X111.471 Y104.98 E0.126
G1 X111.356 Y104.942 E0.003
G1 X111.156 Y104.9 E0.005
G1 X110.79 Y104.823 E0.009
G1 X110.743 Y104.817 E0.001
G1 X115.175 Y109.249 E0.156
G1 X115.224 Y109.644 E0.01
G1 X115.233 Y109.873 E0.006
G1 X110.125 Y104.765 E0.18
G1 E-0.5
G0 X110.691 Y105.331 F2400
G0 X110.125 Y104.765 F2400
;rapid-dry
G0 X104.842 Y109.099 F6000
G1 F1800 E0.5
;bead-solid_infill
G1 X107.1 Y111.357 E0.08
G1 X107.051 Y111.261 E0.003
G1 X107.019 Y111.17 E0.002
G1 X106.912 Y110.865 E0.008
G1 X106.841 Y110.532 E0.009
G1 X104.949 Y108.64 E0.066
G1 X104.982 Y108.503 E0.004
G1 X105.081 Y108.206 E0.008
G1 X106.799 Y109.925 E0.06
G1 X106.817 Y109.617 E0.008
G1 X106.855 Y109.414 E0.005
G1 X105.251 Y107.81 E0.057
G1 X105.318 Y107.656 E0.004
G1 X105.398 Y107.507 E0.004
G1 X105.438 Y107.432 E0.002
G1 X106.972 Y108.966 E0.054
G1 X107.018 Y108.822 E0.004
G1 X107.138 Y108.567 E0.007
G1 X105.653 Y107.081 E0.053
G1 X105.655 Y107.078
G1 X105.896 Y106.759 E0.01
G1 X107.347 Y108.209 E0.051
G1 X107.433 Y108.077 E0.004
G1 X107.593 Y107.89 E0.006
G1 X106.153 Y106.45 E0.051
G1 X106.23 Y106.365 E0.003
G1 X106.435 Y106.166 E0.007
G1 X107.876 Y107.607 E0.05
G1 X107.994 Y107.501 E0.004
G1 X108.018 Y107.479 E0.001
G1 X108.194 Y107.359 E0.006
G1 X106.739 Y105.905 E0.051
G1 X107.069 Y105.669 E0.01
G1 X108.548 Y107.148 E0.052
G1 X108.739 Y107.051 E0.006
G1 X108.945 Y106.979 E0.005
G1 X107.415 Y105.449 E0.054
G1 X107.787 Y105.256 E0.01
G1 X109.389 Y106.858 E0.057
G1 X109.545 Y106.825 E0.004
G1 X109.896 Y106.798 E0.009
G1 X108.19 Y105.093 E0.06
G1 X108.323 Y105.039 E0.003
G1 X108.62 Y104.957 E0.008
G1 X110.502 Y106.839 E0.067
G1 X110.794 Y106.894 E0.007
G1 X111.178 Y107.018 E0.01
G1 X111.308 Y107.08 E0.004
G1 X109.077 Y104.848 E0.078
G1 X109.185 Y104.828 E0.003
G1 X109.21 Y104.823 E0.001
G1 X109.505 Y104.788 E0.007
G1 X109.542 Y104.783 E0.001
G1 X109.577 Y104.782 E0.001
G1 X115.217 Y110.423 E0.199
G1 X115.195 Y110.649 E0.006
G1 X115.147 Y110.918 E0.006
G1 X112.929 Y108.701 E0.079
G1 X112.949 Y108.739 E0.001
G1 X113.088 Y109.135 E0.01
G1 X113.166 Y109.503 E0.01
G1 X115.048 Y111.385 E0.066
G1 X115.006 Y111.536 E0.004
G1 X114.906 Y111.809 E0.007
G1 X113.199 Y110.102 E0.06
G1 X113.183 Y110.383 E0.007
G1 X113.141 Y110.61 E0.006
G1 X114.744 Y112.212 E0.057
G1 X114.662 Y112.386 E0.004
G1 X114.605 Y112.489 E0.003
G1 X114.551 Y112.585 E0.003
G1 X113.021 Y111.056 E0.054
G1 X112.982 Y111.177 E0.003
G1 X112.853 Y111.452 E0.008
G1 X114.33 Y112.93 E0.052
G1 X114.173 Y113.163 E0.007
G1 X114.095 Y113.26 E0.003
G1 X112.642 Y111.807 E0.051
G1 X112.565 Y111.923 E0.004
G1 X112.427 Y112.085 E0.005
G1 X112.394 Y112.125 E0.001
G1 X113.83 Y113.561 E0.051
G1 X113.68 Y113.716 E0.005
G1 X113.563 Y113.838 E0.005
G1 X113.551 Y113.848
G1 X112.109 Y112.406 E0.051
G1 X111.982 Y112.521 E0.004
G1 X111.79 Y112.652 E0.006
G1 X113.245 Y114.107 E0.051
G1 X113.042 Y114.262 E0.007
G1 X112.915 Y114.343 E0.003
G1 X111.433 Y112.861 E0.053
G1 X111.261 Y112.949 E0.004
G1 X111.035 Y113.028 E0.006
G1 X112.569 Y114.563 E0.055
G1 X112.551 Y114.573
G1 X112.258 Y114.725 E0.008
G1 X112.193 Y114.752 E0.002
G1 X110.587 Y113.147 E0.057
G1 X110.455 Y113.175 E0.003
G1 X110.078 Y113.204 E0.01
G1 X111.792 Y114.917 E0.06
G1 X111.718 Y114.947 E0.002
G1 X111.621 Y114.978 E0.003
G1 X111.403 Y115.045 E0.005
G1 X111.364 Y115.055 E0.001
G1 X109.464 Y113.155 E0.067
G1 X109.206 Y113.106 E0.007
G1 X108.822 Y112.982 E0.01
G1 X108.639 Y112.895 E0.005
G1 X110.896 Y115.152 E0.08
G1 X110.788 Y115.169 E0.002
G1 X110.5 Y115.213 E0.008
G1 X110.397 Y115.219 E0.002
G1 X104.781 Y109.603 E0.198
G1 X104.771 Y109.733 E0.003
G1 X104.773 Y110.161 E0.011
G1 X109.838 Y115.226 E0.179
G1 X109.589 Y115.22 E0.006
G1 X109.256 Y115.184 E0.008
G1 X109.225 Y115.179 E0.001
G1 X104.828 Y110.782 E0.155
G1 X104.906 Y111.215 E0.011
G1 X104.978 Y111.48 E0.007
G1 X104.985 Y111.504 E0.001
G1 X108.489 Y115.009 E0.123
G1 X108.381 Y114.972 E0.003
G1 X108.051 Y114.861 E0.009
G1 X107.723 Y114.707 E0.009
G1 X107.533 Y114.618 E0.005
G1 X105.385 Y112.47 E0.076
G1 E-0.5
G0 X105.951 Y113.036 F2400
G0 X105.385 Y112.47 F2400
;rapid-dry
G0 X89.989 Y94.972 F6000
G1 F1800 E0.5
;bead-support
G1 X107.079 Y85.105 F3600 E0.492
G1 X107.18 Y85.09 E0.003
G1 X110.217 Y84.927 E0.076
G1 Y84.935
G1 X112.453 Y85.082 E0.056
G1 X87.202 Y99.66 E0.727
G1 X86.825 Y100.44 E0.022
G1 X86.308 Y101.941 E0.039
G1 X85.855 Y103.253 E0.035
G1 X85.782 Y103.559 E0.008
G1 X116.526 Y85.809 E0.885
G1 X116.986 Y85.923 E0.012
G1 X119.789 Y86.921 E0.074
G1 X119.867 Y86.96 E0.002
G1 X85.112 Y107.025 E1.001
G1 X85.096 Y107.131 E0.003
G1 X84.93 Y110.102 E0.074
G1 X84.935 Y110.207 E0.003
G1 X122.705 Y88.4 E1.088
G1 X124.129 Y89.292 E0.042
G1 X125.122 Y90.028 E0.031
G1 X125.164 Y90.059 E0.001
G1 X85.17 Y113.15 E1.152
G1 X85.439 Y115.022 E0.047
G1 X85.665 Y115.944 E0.024
G1 X105.846 Y104.292 E0.581
G1 X105.875 Y104.267 E0.001
G1 X106.258 Y104.054 E0.011
G1 X127.3 Y91.906 E0.606
G1 X127.92 Y92.468 E0.021
G1 X129.202 Y93.887 E0.048
G1 X112.602 Y103.471 E0.478
G1 X113.733 Y104.005 E0.031
G1 X114.76 Y104.782 E0.032
G1 X115.062 Y105.13 E0.012
G1 X130.802 Y96.042 E0.453
G1 X131.012 Y96.326 E0.009
G1 X132.159 Y98.338 E0.058
G1 X116.533 Y107.36 E0.45
G1 X116.863 Y108.331 E0.025
G1 X117.063 Y109.955 E0.041
G1 X117.047 Y110.142 E0.005
G1 X133.301 Y100.758 E0.468
G1 X133.947 Y102.582 E0.048
G1 X134.137 Y103.354 E0.02
G1 X115.894 Y113.887 E0.526
G1 X115.883 Y113.908
G1 X115.073 Y114.913 E0.032
G1 X114.125 Y115.733 E0.032
G1 X112.696 Y116.528 E0.041
G1 X111.501 Y116.901 E0.031
G1 X110.449 Y117.031 E0.026
G1 X92.157 Y127.591 E0.527
G1 X91.076 Y126.442 E0.039
G1 X90.38 Y125.538 E0.029
G1 X106.62 Y116.162 E0.468
G1 X106.267 Y115.995 E0.009
G1 X105.24 Y115.218 E0.033
G1 X104.466 Y114.326 E0.029
G1 X88.826 Y123.356 E0.45
G1 X87.74 Y121.533 E0.053
G1 X87.508 Y121.038 E0.014
G1 X103.236 Y111.958 E0.453
G1 X103.137 Y111.669 E0.008
G1 X102.937 Y110.045 E0.04
G1 X103.027 Y108.999 E0.027
G1 X86.48 Y118.552 E0.476
G1 F1800 E-0.5
G0 X87.173 Y118.152 F2400
G0 X86.48 Y118.552 F2400
;rapid-leaky
G0 X94.239 Y129.468 F6000
G1 F1800 E0.5
;bead-support
G1 X134.745 Y106.082 F3600 E1.167
G1 X134.937 Y107.427 E0.034
G1 X135.006 Y109.011 E0.039
G1 X96.617 Y131.175 E1.106
G1 X98.865 Y132.462 E0.065
G1 X99.347 Y132.678 E0.013
G1 X134.972 Y112.11 E1.026
G1 X134.957 Y112.37 E0.007
G1 X134.5 Y115.313 E0.074
G1 X134.455 Y115.487 E0.004
G1 X102.563 Y133.9 E0.919
G1 X103.489 Y134.209 E0.024
G1 X105.42 Y134.647 E0.05
G1 X106.365 Y134.785 E0.024
G1 X133.26 Y119.257 E0.774
G1 X132.98 Y120.019 E0.021
G1 X132.121 Y121.796 E0.049
G1 X130.988 Y123.648 E0.054
G1 X111.295 Y135.017 E0.567
G1 X112.323 Y134.962 E0.026
G1 X114.286 Y134.701 E0.049
G1 X117.182 Y134.019 E0.074
G1 X119.052 Y133.378 E0.05
G1 X121.036 Y132.472 E0.054
G1 X124.126 Y130.688 E0.089
G1 F1800 E-0.5
G0 X123.433 Y131.088 F2400
G0 X124.126 Y130.688 F2400
;Layer : 9 of 173
;rapid-leaky
G0 Z1.4 F6000
G1 F1800 E0.5
;bead-support
G1 X121.036 Y132.472 F3600 E0.089
G1 X119.052 Y133.378 E0.055
G1 X117.182 Y134.019 E0.049
G1 X114.286 Y134.701 E0.074
G1 X112.323 Y134.962 E0.05
G1 X111.295 Y135.017 E0.025
G1 X130.988 Y123.648 E0.567
G1 X132.121 Y121.796 E0.055
G1 X132.98 Y120.019 E0.049
G1 X133.26 Y119.257 E0.02
G1 X106.365 Y134.785 E0.775
G1 X105.42 Y134.647 E0.024
G1 X103.489 Y134.209 E0.049
G1 X102.563 Y133.9 E0.024
G1 X134.455 Y115.487 E0.919
G1 X134.5 Y115.313 E0.004
G1 X134.957 Y112.37 E0.075
G1 X134.972 Y112.11 E0.006
G1 X99.347 Y132.678 E1.026
G1 X98.865 Y132.462 E0.014
G1 X96.617 Y131.175 E0.064
G1 X135.006 Y109.011 E1.106
G1 X134.937 Y107.427 E0.039
G1 X134.745 Y106.082 E0.034
G1 X94.239 Y129.468 E1.167
G1 F1800 E-0.5
G0 X94.932 Y129.068 F2400
G0 X94.239 Y129.468 F2400
;rapid-leaky
G0 X86.48 Y118.552 F6000
G1 F1800 E0.5
;bead-support
G1 X103.027 Y108.999 F3600 E0.477
G1 X102.937 Y110.045 E0.026
G1 X103.137 Y111.669 E0.041
G1 X103.236 Y111.958 E0.007
G1 X87.508 Y121.038 E0.453
G1 X87.74 Y121.533 E0.014
G1 X88.826 Y123.356 E0.053
G1 X104.466 Y114.326 E0.45
G1 X105.24 Y115.218 E0.03
G1 X106.267 Y115.995 E0.032
G1 X106.62 Y116.162 E0.01
G1 X90.38 Y125.538 E0.467
G1 X91.076 Y126.442 E0.029
G1 X92.157 Y127.591 E0.039
G1 X110.449 Y117.031 E0.527
G1 X111.501 Y116.901 E0.027
G1 X112.696 Y116.528 E0.031
G1 X114.125 Y115.733 E0.041
G1 X115.073 Y114.913 E0.031
G1 X115.883 Y113.908 E0.032
G1 X115.894 Y113.887 E0.001
G1 X134.137 Y103.354 E0.525
G1 X133.947 Y102.582 E0.02
G1 X133.301 Y100.758 E0.048
G1 X117.047 Y110.142 E0.468
G1 X117.063 Y109.955 E0.005
G1 X116.863 Y108.331 E0.041
G1 X116.533 Y107.36 E0.026
G1 X132.159 Y98.338 E0.45
G1 X131.012 Y96.326 E0.057
G1 X130.802 Y96.042 E0.009
G1 X115.062 Y105.13 E0.454
G1 X114.76 Y104.782 E0.011
G1 X113.733 Y104.005 E0.032
G1 X112.602 Y103.471 E0.031
G1 X129.202 Y93.887 E0.479
G1 X127.92 Y92.468 E0.047
G1 X127.3 Y91.906 E0.021
G1 X106.258 Y104.054 E0.606
G1 X105.875 Y104.267 E0.011
G1 X105.846 Y104.292 E0.001
G1 X85.665 Y115.944 E0.581
G1 X85.439 Y115.022 E0.024
G1 X85.17 Y113.15 E0.047
G1 X125.164 Y90.059 E1.152
G1 X125.046 Y89.971 E0.004
G1 X124.129 Y89.292 E0.028
G1 X122.705 Y88.4 E0.042
G1 X84.935 Y110.207 E1.088
G1 X84.93 Y110.102 E0.003
G1 X85.096 Y107.131 E0.074
G1 X85.112 Y107.025 E0.003
G1 X119.867 Y86.96 E1.001
G1 X119.789 Y86.921 E0.002
G1 X116.986 Y85.923 E0.074
G1 X116.526 Y85.809 E0.012
G1 X85.782 Y103.559 E0.886
G1 X85.855 Y103.253 E0.008
G1 X86.294 Y101.98 E0.033
G1 X86.825 Y100.44 E0.041
G1 X87.202 Y99.66 E0.021
G1 X112.453 Y85.082 E0.728
G1 X110.216 Y84.935 E0.056
G1 X110.217 Y84.927
G1 X107.18 Y85.09 E0.076
G1 X107.079 Y85.105 E0.002
G1 X89.989 Y94.972 E0.492
G1 F1800 E-0.5
G0 X90.682 Y94.572 F2400
G0 X89.989 Y94.972 F2400
;rapid-dry
G0 X110.358 Y112.5 F6000
G1 F1800 E0.5
;bead-perimeter_outer
G1 X110.681 Y112.432 E0.009
G1 X110.993 Y112.322 E0.008
G1 X111.287 Y112.172 E0.008
G1 X111.56 Y111.985 E0.008
G1 X111.821 Y111.748 E0.009
G1 X112.02 Y111.514 E0.008
G1 X112.202 Y111.238 E0.008
G1 X112.351 Y110.918 E0.009
G1 X112.446 Y110.625 E0.008
G1 X112.507 Y110.301 E0.008
G1 X112.525 Y109.972 E0.008
G1 X112.5 Y109.642 E0.008
G1 X112.432 Y109.319 E0.009
G1 X112.322 Y109.007 E0.008
G1 X112.172 Y108.713 E0.008
G1 X111.985 Y108.44 E0.008
G1 X111.749 Y108.179 E0.009
G1 X111.514 Y107.979 E0.008
G1 X111.238 Y107.798 E0.008
G1 X110.918 Y107.649 E0.009
G1 X110.625 Y107.554 E0.007
G1 X110.301 Y107.493 E0.009
G1 X109.972 Y107.475 E0.008
G1 X109.642 Y107.5 E0.008
G1 X109.319 Y107.568 E0.008
G1 X109.007 Y107.678 E0.009
G1 X108.713 Y107.828 E0.008
G1 X108.44 Y108.015 E0.008
G1 X108.179 Y108.251 E0.009
G1 X107.979 Y108.486 E0.008
G1 X107.798 Y108.762 E0.008
G1 X107.649 Y109.082 E0.009
G1 X107.554 Y109.375 E0.007
G1 X107.493 Y109.699 E0.009
G1 X107.475 Y110.028 E0.008
G1 X107.5 Y110.358 E0.008
G1 X107.568 Y110.681 E0.008
G1 X107.678 Y110.993 E0.009
G1 X107.828 Y111.287 E0.008
G1 X108.015 Y111.56 E0.008
G1 X108.251 Y111.821 E0.009
G1 X108.486 Y112.021 E0.008
G1 X108.762 Y112.202 E0.008
G1 X109.082 Y112.351 E0.009
G1 X109.375 Y112.446 E0.007
G1 X109.699 Y112.507 E0.008
G1 X110.028 Y112.525 E0.009
G1 X110.358 Y112.5 E0.008
G1 E-0.5
G0 X110.681 Y112.432 F2400
G0 X110.993 Y112.322 F2400
G0 X111.117 Y112.259 F2400
G0 X110.993 Y112.322 F2400
G0 X110.681 Y112.432 F2400
G0 X110.358 Y112.5 F2400
;rapid-leaky
G0 X110.41 Y112.858 F6000
G1 F1800 E0.5
;bead-perimeter_inner
G1 X110.779 Y112.779 F2400 E0.009
G1 X111.135 Y112.654 E0.01
G1 X111.472 Y112.483 E0.009
G1 X111.784 Y112.268 E0.01
G1 X112.08 Y111.999 E0.01
G1 X112.309 Y111.731 E0.008
G1 X112.517 Y111.414 E0.01
G1 X112.687 Y111.051 E0.01
G1 X112.796 Y110.714 E0.009
G1 X112.865 Y110.345 E0.009
G1 X112.886 Y109.969 E0.009
G1 X112.858 Y109.59 E0.01
G1 X112.779 Y109.221 E0.009
G1 X112.654 Y108.865 E0.01
G1 X112.483 Y108.528 E0.009
G1 X112.268 Y108.216 E0.01
G1 X112 Y107.92 E0.01
G1 X111.731 Y107.69 E0.008
G1 X111.413 Y107.483 E0.01
G1 X111.051 Y107.313 E0.01
G1 X110.714 Y107.204 E0.009
G1 X110.345 Y107.135 E0.009
G1 X109.969 Y107.114 E0.009
G1 X109.59 Y107.142 E0.01
G1 X109.221 Y107.221 E0.009
G1 X108.865 Y107.346 E0.01
G1 X108.528 Y107.517 E0.009
G1 X108.216 Y107.732 E0.01
G1 X107.92 Y108 E0.01
G1 X107.69 Y108.269 E0.008
G1 X107.483 Y108.587 E0.01
G1 X107.313 Y108.949 E0.01
G1 X107.204 Y109.286 E0.009
G1 X107.135 Y109.656 E0.009
G1 X107.114 Y110.031 E0.01
G1 X107.142 Y110.41 E0.009
G1 X107.221 Y110.779 E0.009
G1 X107.346 Y111.135 E0.01
G1 X107.517 Y111.472 E0.009
G1 X107.732 Y111.784 E0.01
G1 X108 Y112.08 E0.01
G1 X108.269 Y112.31 E0.008
G1 X108.587 Y112.517 E0.01
G1 X108.949 Y112.687 E0.01
G1 X109.286 Y112.796 E0.009
G1 X109.656 Y112.865 E0.009
G1 X110.031 Y112.886 E0.01
G1 X110.41 Y112.858 E0.009
G1 F1800 E-0.5
G0 X110.779 Y112.779 F2400
G0 X111.135 Y112.654 F2400
G0 X111.175 Y112.634 F2400
G0 X111.135 Y112.654 F2400
G0 X110.779 Y112.779 F2400
G0 X110.41 Y112.858 F2400
;rapid-dry
G0 X110.558 Y115.994 F6000
G1 F1800 E0.5
;bead-perimeter_outer
G1 X110.202 Y116.016 E0.009
G1 X109.845 Y116.017 E0.009
G1 X109.489 Y115.998 E0.009
G1 X109.135 Y115.957 E0.009
G1 X108.783 Y115.895 E0.008
G1 X108.436 Y115.813 E0.009
G1 X108.094 Y115.71 E0.009
G1 X107.76 Y115.587 E0.009
G1 X107.433 Y115.445 E0.009
G1 X107.002 Y115.218 E0.012
G1 X106.51 Y114.905 E0.015
G1 X106.225 Y114.689 E0.009
G1 X105.955 Y114.458 E0.009
G1 X105.698 Y114.21 E0.008
G1 X105.457 Y113.949 E0.009
G1 X105.021 Y113.383 E0.018
G1 X104.829 Y113.082 E0.009
G1 X104.656 Y112.77 E0.009
G1 X104.501 Y112.449 E0.009
G1 X104.365 Y112.118 E0.009
G1 X104.25 Y111.781 E0.009
G1 X104.154 Y111.437 E0.009
G1 X104.08 Y111.088 E0.008
G1 X104.026 Y110.736 E0.009
G1 X103.993 Y110.381 E0.009
G1 X103.981 Y110.023 E0.009
G1 X103.99 Y109.667 E0.009
G1 X104.02 Y109.312 E0.009
G1 X104.071 Y108.959 E0.009
G1 X104.144 Y108.609 E0.009
G1 X104.237 Y108.265 E0.009
G1 X104.349 Y107.926 E0.009
G1 X104.633 Y107.272 E0.017
G1 X104.805 Y106.959 E0.009
G1 X104.994 Y106.657 E0.009
G1 X105.202 Y106.366 E0.009
G1 X105.425 Y106.088 E0.009
G1 X105.664 Y105.824 E0.009
G1 X106.189 Y105.341 E0.018
G1 X106.471 Y105.123 E0.009
G1 X106.766 Y104.923 E0.008
G1 X107.073 Y104.74 E0.009
G1 X107.389 Y104.576 E0.009
G1 X107.716 Y104.431 E0.009
G1 X108.05 Y104.305 E0.009
G1 X108.39 Y104.2 E0.009
G1 X108.737 Y104.115 E0.009
G1 X109.442 Y104.006 E0.018
G1 X109.929 Y103.983 E0.012
G1 X110.511 Y104.002 E0.014
G1 X110.865 Y104.043 E0.009
G1 X111.217 Y104.105 E0.009
G1 X111.564 Y104.187 E0.009
G1 X111.906 Y104.29 E0.009
G1 X112.241 Y104.413 E0.009
G1 X112.567 Y104.555 E0.009
G1 X112.885 Y104.717 E0.009
G1 X113.193 Y104.898 E0.008
G1 X113.49 Y105.095 E0.009
G1 X113.775 Y105.311 E0.009
G1 X114.045 Y105.542 E0.009
G1 X114.302 Y105.79 E0.009
G1 X114.627 Y106.153 E0.012
G1 X114.98 Y106.618 E0.015
G1 X115.171 Y106.918 E0.009
G1 X115.344 Y107.23 E0.009
G1 X115.499 Y107.551 E0.008
G1 X115.635 Y107.882 E0.009
G1 X115.75 Y108.219 E0.009
G1 X115.846 Y108.563 E0.009
G1 X115.92 Y108.912 E0.009
G1 X115.974 Y109.264 E0.009
G1 X116.007 Y109.619 E0.009
G1 X116.016 Y110.107 E0.012
G1 X115.98 Y110.688 E0.015
G1 X115.929 Y111.041 E0.008
G1 X115.856 Y111.391 E0.009
G1 X115.763 Y111.735 E0.009
G1 X115.651 Y112.074 E0.009
G1 X115.367 Y112.728 E0.018
G1 X115.195 Y113.041 E0.009
G1 X115.006 Y113.343 E0.009
G1 X114.798 Y113.634 E0.009
G1 X114.575 Y113.912 E0.009
G1 X114.336 Y114.176 E0.008
G1 X113.811 Y114.659 E0.018
G1 X113.529 Y114.877 E0.009
G1 X113.234 Y115.077 E0.009
G1 X112.927 Y115.26 E0.009
G1 X112.61 Y115.424 E0.009
G1 X112.284 Y115.569 E0.009
G1 X111.95 Y115.695 E0.009
G1 X111.609 Y115.8 E0.009
G1 X111.263 Y115.885 E0.008
G1 X110.558 Y115.994 E0.018
G1 E-0.5
G0 X110.202 Y116.016 F2400
G0 X109.845 Y116.017 F2400
G0 X109.759 Y116.012 F2400
G0 X109.845 Y116.017 F2400
G0 X110.202 Y116.016 F2400
G0 X110.558 Y115.994 F2400
;rapid-leaky
G0 X110.525 Y115.635 F6000
G1 F1800 E0.5
;bead-perimeter_inner
G1 X110.191 Y115.656 F2400 E0.009
G1 X109.519 Y115.639 E0.016
G1 X109.187 Y115.601 E0.009
G1 X108.855 Y115.542 E0.008
G1 X108.208 Y115.369 E0.017
G1 X107.894 Y115.253 E0.008
G1 X107.287 Y114.967 E0.017
G1 X106.718 Y114.611 E0.017
G1 X106.451 Y114.409 E0.008
G1 X106.197 Y114.191 E0.008
G1 X105.731 Y113.715 E0.017
G1 X105.318 Y113.18 E0.017
G1 X105.138 Y112.897 E0.008
G1 X104.83 Y112.302 E0.017
G1 X104.594 Y111.674 E0.017
G1 X104.504 Y111.351 E0.008
G1 X104.434 Y111.022 E0.008
G1 X104.383 Y110.692 E0.009
G1 X104.352 Y110.358 E0.008
G1 X104.349 Y109.686 E0.017
G1 X104.378 Y109.353 E0.008
G1 X104.426 Y109.021 E0.008
G1 X104.494 Y108.693 E0.009
G1 X104.687 Y108.05 E0.017
G1 X104.955 Y107.435 E0.016
G1 X105.115 Y107.141 E0.009
G1 X105.489 Y106.583 E0.016
G1 X105.699 Y106.322 E0.009
G1 X105.923 Y106.074 E0.008
G1 X106.417 Y105.619 E0.017
G1 X106.682 Y105.415 E0.008
G1 X106.96 Y105.227 E0.009
G1 X107.249 Y105.054 E0.008
G1 X107.545 Y104.901 E0.008
G1 X108.168 Y104.645 E0.017
G1 X108.486 Y104.547 E0.008
G1 X108.812 Y104.467 E0.009
G1 X109.475 Y104.365 E0.017
G1 X109.93 Y104.343 E0.011
G1 X110.481 Y104.361 E0.014
G1 X110.813 Y104.399 E0.008
G1 X111.471 Y104.535 E0.017
G1 X111.792 Y104.632 E0.008
G1 X112.106 Y104.747 E0.008
G1 X112.712 Y105.033 E0.017
G1 X113.002 Y105.203 E0.009
G1 X113.282 Y105.389 E0.008
G1 X113.803 Y105.809 E0.017
G1 X114.044 Y106.042 E0.008
G1 X114.348 Y106.381 E0.011
G1 X114.682 Y106.821 E0.014
G1 X114.862 Y107.103 E0.008
G1 X115.17 Y107.698 E0.017
G1 X115.297 Y108.009 E0.009
G1 X115.496 Y108.649 E0.016
G1 X115.566 Y108.977 E0.009
G1 X115.617 Y109.308 E0.008
G1 X115.648 Y109.642 E0.008
G1 X115.656 Y110.099 E0.012
G1 X115.622 Y110.647 E0.013
G1 X115.574 Y110.979 E0.009
G1 X115.418 Y111.632 E0.017
G1 X115.313 Y111.95 E0.008
G1 X115.045 Y112.565 E0.017
G1 X114.885 Y112.859 E0.008
G1 X114.511 Y113.417 E0.017
G1 X114.077 Y113.926 E0.016
G1 X113.583 Y114.381 E0.017
G1 X113.318 Y114.585 E0.009
G1 X112.752 Y114.945 E0.016
G1 X112.454 Y115.099 E0.009
G1 X111.833 Y115.354 E0.016
G1 X111.513 Y115.453 E0.009
G1 X111.188 Y115.533 E0.008
G1 X110.525 Y115.635 E0.017
G1 F1800 E-0.5
G0 X110.191 Y115.656 F2400
G0 X109.725 Y115.644 F2400
G0 X110.191 Y115.656 F2400
G0 X110.525 Y115.635 F2400
;rapid-dry
G0 X107.753 Y105.162 F6000
G1 F1800 E0.5
;bead-solid_infill
G1 X105.168 Y107.747 E0.091
G1 X104.988 Y108.16 E0.011
G1 X104.845 Y108.635 E0.013
G1 X108.642 Y104.838 E0.134
G1 X108.734 Y104.816 E0.002
G1 X108.875 Y104.781 E0.004
G1 X108.936 Y104.772 E0.001
G1 X109.336 Y104.71 E0.01
G1 X104.702 Y109.344 E0.164
G1 X104.696 Y109.389 E0.001
G1 X104.669 Y109.699 E0.008
G1 X104.67 Y109.941 E0.006
G1 X109.948 Y104.664 E0.186
G1 X110.457 Y104.681 E0.013
G1 X110.493 Y104.685
G1 X104.686 Y110.492 E0.205
G1 X104.701 Y110.653 E0.004
G1 X104.749 Y110.965 E0.008
G1 X104.754 Y110.989 E0.001
G1 X107.105 Y108.638 E0.083
G1 X107.015 Y108.832 E0.005
G1 X106.893 Y109.207 E0.01
G1 X106.845 Y109.464 E0.006
G1 X104.863 Y111.446 E0.07
G1 X104.899 Y111.575 E0.004
G1 X105.008 Y111.867 E0.008
G1 X106.796 Y110.078 E0.063
G1 X106.825 Y110.455 E0.009
G1 X106.853 Y110.587 E0.003
G1 X105.172 Y112.268 E0.06
G1 X105.232 Y112.382 E0.003
G1 X105.366 Y112.64 E0.007
G1 X106.972 Y111.035 E0.057
G1 X106.982 Y111.063 E0.001
G1 X107.051 Y111.261 E0.005
G1 X107.139 Y111.433 E0.005
G1 X105.579 Y112.993 E0.055
G1 X105.581 Y112.996
G1 X105.825 Y113.313 E0.01
G1 X107.348 Y111.79 E0.053
G1 X107.434 Y111.916 E0.004
G1 X107.48 Y111.983 E0.002
G1 X107.594 Y112.109 E0.005
G1 X106.084 Y113.619 E0.053
G1 X106.364 Y113.905 E0.01
G1 X107.875 Y112.394 E0.053
G1 X108.077 Y112.567 E0.007
G1 X108.192 Y112.642 E0.003
G1 X106.665 Y114.169 E0.054
G1 X106.9 Y114.348 E0.007
G1 X106.994 Y114.406 E0.003
G1 X108.548 Y112.852 E0.055
G1 X108.832 Y112.985 E0.008
G1 X108.944 Y113.022 E0.003
G1 X107.342 Y114.624 E0.056
G1 X107.441 Y114.686 E0.003
G1 X107.716 Y114.816 E0.008
G1 X109.39 Y113.141 E0.059
G1 X109.617 Y113.183 E0.006
G1 X109.898 Y113.199 E0.007
G1 X108.107 Y114.99 E0.063
G1 X108.305 Y115.063 E0.005
G1 X108.537 Y115.126 E0.006
G1 X110.497 Y113.166 E0.069
G1 X110.865 Y113.088 E0.01
G1 X111.261 Y112.949 E0.01
G1 X111.299 Y112.929 E0.001
G1 X108.988 Y115.241 E0.082
G1 X109.087 Y115.258 E0.002
G1 X109.233 Y115.284 E0.004
G1 X109.254 Y115.286
G1 X109.482 Y115.312 E0.006
G1 X115.312 Y109.483 E0.206
G1 X115.299 Y109.348 E0.003
G1 X115.251 Y109.035 E0.008
G1 X115.241 Y108.988 E0.001
G1 X112.919 Y111.309 E0.082
G1 X112.985 Y111.168 E0.004
G1 X113.107 Y110.793 E0.01
G1 X113.161 Y110.502 E0.007
G1 X115.126 Y108.537 E0.07
G1 X114.996 Y108.117 E0.011
G1 X114.991 Y108.106
G1 X113.202 Y109.896 E0.063
G1 X113.175 Y109.545 E0.009
G1 X113.142 Y109.389 E0.004
G1 X114.818 Y107.714 E0.059
G1 X114.625 Y107.341 E0.01
G1 X113.021 Y108.945 E0.057
G1 X112.949 Y108.739 E0.005
G1 X112.852 Y108.548 E0.006
G1 X114.409 Y106.991 E0.055
G1 X114.165 Y106.669 E0.01
G1 X112.641 Y108.194 E0.053
G1 X112.52 Y108.017 E0.006
G1 X112.392 Y107.876 E0.004
G1 X113.904 Y106.365 E0.054
G1 X113.814 Y106.264 E0.003
G1 X113.623 Y106.08 E0.007
G1 X112.11 Y107.593 E0.053
G1 X111.923 Y107.433 E0.006
G1 X111.791 Y107.347 E0.004
G1 X113.313 Y105.825 E0.054
G1 X113.092 Y105.647 E0.007
G1 X112.991 Y105.58 E0.003
G1 X111.433 Y107.139 E0.055
G1 X111.168 Y107.015 E0.007
G1 X111.035 Y106.971 E0.004
G1 X112.643 Y105.363 E0.057
G1 X112.562 Y105.316 E0.002
G1 X112.265 Y105.175 E0.008
G1 X110.586 Y106.855 E0.059
G1 X110.383 Y106.817 E0.005
G1 X110.075 Y106.799 E0.008
G1 X111.873 Y105.002 E0.064
G1 X111.691 Y104.935 E0.004
G1 X111.447 Y104.862 E0.007
G1 X109.468 Y106.841 E0.07
G1 X109.135 Y106.912 E0.008
G1 X108.739 Y107.051 E0.011
G1 X108.643 Y107.1 E0.002
G1 X110.982 Y104.761 E0.083
G1 E-0.5
G0 X110.417 Y105.327 F2400
G0 X110.982 Y104.761 F2400
;rapid-dry
G0 X115.335 Y110.025 F6000
G1 F1800 E0.5
;bead-solid_infill
G1 X110.028 Y115.332 E0.187
G1 X110.15 Y115.335 E0.003
G1 X110.185 Y115.336 E0.001
G1 X110.49 Y115.317 E0.007
G1 X110.631 Y115.295 E0.004
G1 X115.303 Y110.623 E0.165
G1 X115.26 Y110.918 E0.007
G1 X115.208 Y111.136 E0.006
G1 X115.162 Y111.33 E0.005
G1 X111.32 Y115.171 E0.135
G1 X111.427 Y115.145 E0.003
G1 X111.725 Y115.053 E0.008
G1 X112.199 Y114.858 E0.013
G1 X114.854 Y112.203 E0.093
G1 E-0.5
G0 X114.288 Y112.769 F2400
G0 X114.854 Y112.203 F2400
;rapid-dry
G0 X110.354 Y135.56 F6000
G1 F1800 E0.5
;bead-support
G1 X110.252 Y135.619 F3600 E0.003
G1 F1800 E-0.5
G0 X110.354 Y135.56 F2400
G0 X110.252 Y135.619 F2400
;Layer : 10 of 173
;rapid-leaky
G0 Z1.55 F6000
G1 F1800 E0.5
;bead-support
G1 X110.395 Y135.537 F3600 E0.004
G1 X109.801 Y135.097 E0.019
G1 X111.295 Y135.017 E0.037
G1 X130.988 Y123.648 E0.567
G1 X132.121 Y121.796 E0.054
G1 X132.98 Y120.019 E0.05
G1 X133.26 Y119.257 E0.02
G1 X106.365 Y134.785 E0.775
G1 X105.42 Y134.647 E0.024
G1 X103.489 Y134.209 E0.049
G1 X102.563 Y133.9 E0.024
G1 X134.455 Y115.487 E0.919
G1 X134.5 Y115.313 E0.004
G1 X134.957 Y112.37 E0.075
G1 X134.972 Y112.11 E0.006
G1 X99.347 Y132.678 E1.026
G1 X98.865 Y132.462 E0.013
G1 X96.617 Y131.175 E0.065
G1 X135.006 Y109.011 E1.106
G1 F1800 E-0.5
G0 X134.313 Y109.411 F2400
G0 X135.006 Y109.011 F2400
;rapid-leaky
G0 X127.3 Y91.906 F6000
G1 F1800 E0.5
;bead-support
G1 X109.504 Y102.18 F3600 E0.512
G1 X109.762 Y102.149 E0.007
G1 X111.097 Y102.225 E0.033
G1 X112.509 Y102.559 E0.037
G1 X113.429 Y102.993 E0.025
G1 X113.454 Y102.979 E0.001
G1 X114.193 Y102.367 E0.024
G1 X114.236 Y102.527 E0.004
G1 X129.202 Y93.887 E0.431
G1 X129.244 Y93.933 E0.001
G1 X130.802 Y96.042 E0.066
G1 X115.637 Y104.797 E0.437
G1 X115.68 Y104.94 E0.003
G1 X116.235 Y104.707 E0.015
G1 X116.844 Y106.646 E0.051
G1 X116.339 Y106.928 E0.014
G1 X116.46 Y107.145 E0.007
G1 X116.533 Y107.36 E0.005
G1 X132.159 Y98.338 E0.45
G1 X132.484 Y98.909 E0.017
G1 X133.286 Y100.715 E0.049
G1 X133.301 Y100.758 E0.001
G1 X117.047 Y110.142 E0.468
G1 X116.952 Y111.241 E0.028
G1 X116.624 Y112.449 E0.031
G1 X116.349 Y112.991 E0.015
G1 X116.895 Y113.309 E0.016
G1 X134.137 Y103.354 E0.497
G1 X134.657 Y105.47 E0.054
G1 X134.745 Y106.082 E0.015
G1 X94.239 Y129.468 E1.167
G1 X93.894 Y129.212 E0.011
G1 X92.432 Y127.884 E0.049
G1 X92.157 Y127.591 E0.01
G1 X109.136 Y117.789 E0.489
G1 X108.887 Y117.774 E0.006
G1 X107.494 Y117.442 E0.036
G1 X105.93 Y116.709 E0.043
G1 X105.812 Y116.628 E0.004
G1 X90.38 Y125.538 E0.444
G1 X89.262 Y124.087 E0.046
G1 X88.826 Y123.356 E0.021
G1 X103.563 Y114.848 E0.425
G1 X103.191 Y113.285 E0.04
G1 X103.648 Y113.049 E0.013
G1 X103.54 Y112.855 E0.005
G1 X103.236 Y111.958 E0.024
G1 X87.508 Y121.038 E0.453
G1 X86.902 Y119.746 E0.035
G1 X86.48 Y118.552 E0.032
G1 X102.236 Y109.455 E0.454
G1 X102.414 Y108.657 E0.02
G1 X103.049 Y108.754 E0.016
G1 X103.123 Y108.483 E0.007
G1 X102.454 Y108.247 E0.018
G1 X102.849 Y106.386 E0.047
G1 X103.217 Y106.437 E0.01
G1 X103.386 Y105.712 E0.018
G1 X85.665 Y115.944 E0.511
G1 X85.439 Y115.022 E0.023
G1 X85.17 Y113.15 E0.048
G1 X125.164 Y90.059 E1.152
G1 X125.039 Y89.966 E0.003
G1 X124.129 Y89.292 E0.029
G1 X122.705 Y88.4 E0.042
G1 X84.935 Y110.207 E1.088
G1 X84.93 Y110.102 E0.002
G1 X85.096 Y107.131 E0.074
G1 X85.112 Y107.025 E0.003
G1 X119.867 Y86.96 E1.001
G1 X119.789 Y86.921 E0.002
G1 X116.986 Y85.923 E0.075
G1 X116.526 Y85.809 E0.011
G1 X85.782 Y103.559 E0.886
G1 X85.855 Y103.253 E0.008
G1 X86.257 Y102.086 E0.031
G1 X86.825 Y100.44 E0.043
G1 X87.202 Y99.66 E0.022
G1 X112.453 Y85.082 E0.727
G1 X110.217 Y84.935 E0.056
G1 Y84.927
G1 X107.18 Y85.09 E0.076
G1 X107.079 Y85.105 E0.002
G1 X89.989 Y94.972 E0.493
G1 F1800 E-0.5
G0 X90.682 Y94.572 F2400
G0 X89.989 Y94.972 F2400
;rapid-leaky
G0 X103.321 Y107.751 F6000
G1 F1800 E0.5
;bead-support
G1 X103.063 Y107.304 F3600 E0.013
G1 X103.163 Y106.834 E0.012
G1 X103.523 Y106.883 E0.009
G1 X103.542 Y106.801 E0.002
G1 X103.657 Y106.998 E0.005
G1 X104.017 Y106.289 E0.02
G1 X103.764 Y105.851 E0.013
G1 X103.834 Y105.552 E0.008
G1 X104.361 E0.013
G1 X104.441 Y105.69 E0.004
G1 X104.889 Y105.133 E0.018
G1 X104.532 Y104.515 E0.017
G1 X104.561 Y104.22 E0.008
G1 X105.045 Y104.479 E0.013
G1 X105.203 Y104.343 E0.006
G1 X105.397 Y104.68 E0.009
G1 X105.669 Y104.445 E0.009
G1 X105.875 Y104.267 E0.007
G1 X105.916 Y104.245 E0.001
G1 X105.53 Y103.576 E0.019
G1 X105.579 Y103.326 E0.007
G1 X106.085 Y103.709 E0.016
G1 X106.305 Y103.586 E0.006
G1 X106.498 Y103.921 E0.01
G1 X107.081 Y103.596 E0.016
G1 X106.888 Y103.262 E0.01
G1 X107.019 Y103.189 E0.004
G1 X107.204 Y103.097 E0.005
G1 X107.508 Y103.002 E0.008
G1 X107.707 Y103.347 E0.01
G1 X108.359 Y103.143 E0.017
G1 X108.16 Y102.799 E0.01
G1 X108.425 Y102.716 E0.006
G1 X108.852 Y102.664 E0.011
G1 X109.063 Y103.029 E0.011
G1 X109.782 Y102.941 E0.018
G1 X109.571 Y102.575 E0.01
G1 X109.775 Y102.55 E0.005
G1 X110.345 Y102.582 E0.015
G1 X110.577 Y102.986 E0.011
G1 X110.996 Y103.009 E0.011
G1 X111.418 Y103.109 E0.011
G1 X111.153 Y102.649 E0.013
G1 X112.045 Y102.86 E0.023
G1 X112.32 Y103.338 E0.013
G1 X113.379 Y103.838 E0.03
G1 X113.041 Y103.252 E0.017
G1 X113.493 Y103.466 E0.012
G1 X113.791 Y103.219 E0.01
G1 X114.643 Y104.693 E0.042
G1 X114.76 Y104.782 E0.004
G1 X115.832 Y106.017 E0.041
G1 X115.957 Y106.242 E0.006
G1 X116.145 Y106.578 E0.01
G1 X116.365 Y106.455 E0.006
G1 X116.288 Y106.21 E0.006
G1 X115.781 Y105.332 E0.026
G1 F1800 E-0.5
G0 X116.181 Y106.024 F2400
G0 X115.781 Y105.332 F2400
;rapid-dry
G0 X112.938 Y104.619 F6000
G1 F1800 E0.5
;bead-perimeter_outer
G1 X113.246 Y104.799 E0.009
G1 X113.555 Y105.005 E0.009
G1 X113.84 Y105.22 E0.009
G1 X114.121 Y105.459 E0.009
G1 X114.383 Y105.712 E0.009
G1 X114.624 Y105.974 E0.009
G1 X114.859 Y106.26 E0.009
G1 X115.068 Y106.549 E0.009
G1 X115.267 Y106.861 E0.009
G1 X115.44 Y107.173 E0.009
G1 X115.601 Y107.505 E0.009
G1 X115.739 Y107.842 E0.009
G1 X115.855 Y108.18 E0.009
G1 X115.954 Y108.537 E0.01
G1 X116.03 Y108.892 E0.009
G1 X116.085 Y109.251 E0.009
G1 X116.119 Y109.613 E0.009
G1 X116.132 Y109.976 E0.009
G1 X116.122 Y110.339 E0.009
G1 X116.091 Y110.701 E0.009
G1 X116.039 Y111.06 E0.009
G1 X115.965 Y111.417 E0.009
G1 X115.873 Y111.761 E0.009
G1 X115.756 Y112.112 E0.009
G1 X115.621 Y112.45 E0.009
G1 X115.466 Y112.777 E0.009
G1 X115.291 Y113.097 E0.009
G1 X115.103 Y113.399 E0.009
G1 X114.887 Y113.701 E0.01
G1 X114.665 Y113.979 E0.008
G1 X114.417 Y114.253 E0.01
G1 X114.156 Y114.508 E0.009
G1 X113.887 Y114.741 E0.009
G1 X113.594 Y114.967 E0.009
G1 X113.299 Y115.167 E0.009
G1 X112.986 Y115.354 E0.009
G1 X112.659 Y115.525 E0.009
G1 X112.327 Y115.673 E0.009
G1 X111.986 Y115.801 E0.009
G1 X111.639 Y115.908 E0.009
G1 X111.286 Y115.995 E0.009
G1 X110.93 Y116.06 E0.009
G1 X110.568 Y116.105 E0.009
G1 X110.206 Y116.128 E0.009
G1 X109.842 Y116.13 E0.01
G1 X109.479 Y116.11 E0.009
G1 X109.119 Y116.068 E0.009
G1 X108.762 Y116.005 E0.009
G1 X108.413 Y115.922 E0.009
G1 X108.059 Y115.816 E0.009
G1 X107.717 Y115.691 E0.009
G1 X107.385 Y115.546 E0.009
G1 X107.062 Y115.381 E0.009
G1 X106.754 Y115.201 E0.009
G1 X106.445 Y114.995 E0.009
G1 X106.16 Y114.78 E0.009
G1 X105.879 Y114.541 E0.009
G1 X105.617 Y114.288 E0.009
G1 X105.376 Y114.026 E0.009
G1 X105.141 Y113.74 E0.01
G1 X104.932 Y113.451 E0.008
G1 X104.733 Y113.139 E0.01
G1 X104.56 Y112.827 E0.009
G1 X104.399 Y112.495 E0.009
G1 X104.261 Y112.158 E0.009
G1 X104.145 Y111.82 E0.009
G1 X104.046 Y111.463 E0.009
G1 X103.97 Y111.108 E0.009
G1 X103.915 Y110.749 E0.009
G1 X103.881 Y110.387 E0.009
G1 X103.868 Y110.024 E0.009
G1 X103.878 Y109.661 E0.009
G1 X103.909 Y109.299 E0.009
G1 X103.961 Y108.94 E0.009
G1 X104.035 Y108.583 E0.01
G1 X104.127 Y108.239 E0.008
G1 X104.244 Y107.888 E0.01
G1 X104.379 Y107.55 E0.009
G1 X104.534 Y107.223 E0.009
G1 X104.709 Y106.903 E0.009
G1 X104.897 Y106.601 E0.009
G1 X105.113 Y106.299 E0.009
G1 X105.335 Y106.021 E0.009
G1 X105.583 Y105.747 E0.009
G1 X105.844 Y105.492 E0.009
G1 X106.113 Y105.259 E0.009
G1 X106.406 Y105.033 E0.009
G1 X106.701 Y104.833 E0.009
G1 X107.014 Y104.646 E0.009
G1 X107.341 Y104.475 E0.009
G1 X107.673 Y104.327 E0.01
G1 X108.014 Y104.199 E0.009
G1 X108.361 Y104.092 E0.009
G1 X108.714 Y104.005 E0.009
G1 X109.07 Y103.94 E0.009
G1 X109.432 Y103.895 E0.009
G1 X109.794 Y103.872 E0.009
G1 X110.158 Y103.87 E0.009
G1 X110.521 Y103.89 E0.009
G1 X110.881 Y103.932 E0.009
G1 X111.238 Y103.995 E0.009
G1 X111.593 Y104.079 E0.009
G1 X111.941 Y104.184 E0.009
G1 X112.283 Y104.309 E0.009
G1 X112.615 Y104.454 E0.009
G1 X112.938 Y104.619 E0.009
G1 E-0.5
G0 X113.246 Y104.799 F2400
G0 X113.555 Y105.005 F2400
G0 X113.612 Y105.048 F2400
G0 X113.555 Y105.005 F2400
G0 X113.246 Y104.799 F2400
G0 X112.938 Y104.619 F2400
;rapid-leaky
G0 X112.765 Y104.934 F6000
G1 F1800 E0.5
;bead-perimeter_inner
G1 X113.055 Y105.104 F2400 E0.009
G1 X113.347 Y105.299 E0.009
G1 X113.614 Y105.501 E0.008
G1 X113.879 Y105.726 E0.009
G1 X114.125 Y105.964 E0.008
G1 X114.573 Y106.48 E0.017
G1 X114.77 Y106.751 E0.009
G1 X114.958 Y107.046 E0.008
G1 X115.272 Y107.652 E0.017
G1 X115.511 Y108.287 E0.017
G1 X115.604 Y108.623 E0.009
G1 X115.676 Y108.958 E0.008
G1 X115.728 Y109.295 E0.009
G1 X115.76 Y109.636 E0.009
G1 X115.772 Y109.977 E0.008
G1 X115.763 Y110.319 E0.009
G1 X115.733 Y110.66 E0.008
G1 X115.684 Y110.998 E0.009
G1 X115.528 Y111.658 E0.017
G1 X115.418 Y111.988 E0.008
G1 X115.291 Y112.306 E0.009
G1 X115.145 Y112.614 E0.008
G1 X114.98 Y112.915 E0.009
G1 X114.803 Y113.199 E0.008
G1 X114.39 Y113.746 E0.017
G1 X114.157 Y114.004 E0.009
G1 X113.913 Y114.243 E0.008
G1 X113.66 Y114.462 E0.009
G1 X113.106 Y114.864 E0.017
G1 X112.811 Y115.04 E0.008
G1 X112.502 Y115.2 E0.009
G1 X112.19 Y115.34 E0.009
G1 X111.543 Y115.561 E0.017
G1 X111.211 Y115.643 E0.008
G1 X110.535 Y115.746 E0.017
G1 X110.194 Y115.768 E0.009
G1 X109.851 Y115.77 E0.008
G1 X109.51 Y115.751 E0.009
G1 X109.171 Y115.712 E0.008
G1 X108.835 Y115.652 E0.009
G1 X108.172 Y115.474 E0.017
G1 X107.851 Y115.357 E0.009
G1 X107.538 Y115.22 E0.008
G1 X107.235 Y115.066 E0.009
G1 X106.945 Y114.896 E0.008
G1 X106.653 Y114.701 E0.009
G1 X106.386 Y114.499 E0.008
G1 X106.121 Y114.274 E0.009
G1 X105.875 Y114.037 E0.008
G1 X105.427 Y113.52 E0.017
G1 X105.23 Y113.249 E0.009
G1 X105.042 Y112.954 E0.008
G1 X104.728 Y112.348 E0.017
G1 X104.489 Y111.713 E0.017
G1 X104.396 Y111.377 E0.009
G1 X104.324 Y111.042 E0.009
G1 X104.272 Y110.705 E0.008
G1 X104.24 Y110.364 E0.009
G1 X104.228 Y110.023 E0.008
G1 X104.237 Y109.681 E0.009
G1 X104.267 Y109.34 E0.008
G1 X104.316 Y109.002 E0.009
G1 X104.472 Y108.342 E0.017
G1 X104.582 Y108.012 E0.008
G1 X104.709 Y107.694 E0.009
G1 X104.855 Y107.386 E0.008
G1 X105.02 Y107.085 E0.009
G1 X105.197 Y106.801 E0.008
G1 X105.61 Y106.254 E0.017
G1 X105.843 Y105.996 E0.009
G1 X106.088 Y105.757 E0.009
G1 X106.34 Y105.538 E0.008
G1 X106.894 Y105.136 E0.017
G1 X107.189 Y104.96 E0.009
G1 X107.498 Y104.8 E0.008
G1 X107.81 Y104.66 E0.009
G1 X108.457 Y104.439 E0.017
G1 X108.789 Y104.357 E0.008
G1 X109.465 Y104.254 E0.017
G1 X109.806 Y104.232 E0.009
G1 X110.149 Y104.23 E0.009
G1 X110.49 Y104.249 E0.008
G1 X110.829 Y104.288 E0.009
G1 X111.166 Y104.348 E0.008
G1 X111.499 Y104.427 E0.009
G1 X112.149 Y104.643 E0.017
G1 X112.462 Y104.78 E0.008
G1 X112.765 Y104.934 E0.009
G1 F1800 E-0.5
G0 X113.055 Y105.104 F2400
G0 X113.347 Y105.299 F2400
G0 X113.437 Y105.367 F2400
G0 X113.347 Y105.299 F2400
G0 X113.055 Y105.104 F2400
G0 X112.765 Y104.934 F2400
;rapid-leaky
G0 X111.238 Y107.798 F6000
G1 F1800 E0.5
;bead-perimeter_outer
G1 X110.939 Y107.656 E0.008
G1 X110.626 Y107.554 E0.008
G1 X110.3 Y107.493 E0.009
G1 X109.941 Y107.477 E0.008
G1 X109.641 Y107.5 E0.008
G1 X109.319 Y107.568 E0.008
G1 X109.007 Y107.678 E0.008
G1 X108.713 Y107.828 E0.009
G1 X108.439 Y108.015 E0.008
G1 X108.173 Y108.259 E0.009
G1 X107.979 Y108.486 E0.007
G1 X107.798 Y108.762 E0.009
G1 X107.656 Y109.061 E0.008
G1 X107.554 Y109.374 E0.008
G1 X107.493 Y109.7 E0.008
G1 X107.477 Y110.059 E0.009
G1 X107.5 Y110.359 E0.008
G1 X107.568 Y110.681 E0.008
G1 X107.678 Y110.993 E0.008
G1 X107.828 Y111.287 E0.009
G1 X108.015 Y111.561 E0.008
G1 X108.259 Y111.827 E0.009
G1 X108.486 Y112.021 E0.007
G1 X108.762 Y112.202 E0.009
G1 X109.061 Y112.344 E0.008
G1 X109.374 Y112.446 E0.008
G1 X109.7 Y112.507 E0.008
G1 X110.059 Y112.523 E0.009
G1 X110.359 Y112.5 E0.008
G1 X110.681 Y112.432 E0.008
G1 X110.993 Y112.322 E0.008
G1 X111.287 Y112.172 E0.008
G1 X111.561 Y111.985 E0.009
G1 X111.827 Y111.741 E0.009
G1 X112.02 Y111.514 E0.007
G1 X112.202 Y111.238 E0.008
G1 X112.344 Y110.939 E0.009
G1 X112.446 Y110.626 E0.008
G1 X112.507 Y110.3 E0.008
G1 X112.523 Y109.941 E0.009
G1 X112.5 Y109.641 E0.008
G1 X112.432 Y109.319 E0.008
G1 X112.322 Y109.007 E0.008
G1 X112.172 Y108.713 E0.008
G1 X111.985 Y108.439 E0.009
G1 X111.741 Y108.173 E0.009
G1 X111.514 Y107.979 E0.007
G1 X111.238 Y107.798 E0.008
G1 E-0.5
G0 X110.939 Y107.656 F2400
G0 X110.626 Y107.554 F2400
G0 X110.489 Y107.528 F2400
G0 X110.626 Y107.554 F2400
G0 X110.939 Y107.656 F2400
G0 X111.238 Y107.798 F2400
;rapid-leaky
G0 X111.415 Y107.484 F6000
G1 F1800 E0.5
;bead-perimeter_inner
G1 X111.073 Y107.321 F2400 E0.01
G1 X110.715 Y107.204 E0.009
G1 X110.341 Y107.134 E0.01
G1 X109.935 Y107.116 E0.01
G1 X109.59 Y107.142 E0.008
G1 X109.221 Y107.221 E0.01
G1 X108.865 Y107.346 E0.009
G1 X108.528 Y107.517 E0.01
G1 X108.215 Y107.732 E0.009
G1 X107.914 Y108.008 E0.01
G1 X107.69 Y108.269 E0.009
G1 X107.484 Y108.585 E0.009
G1 X107.321 Y108.927 E0.01
G1 X107.204 Y109.285 E0.009
G1 X107.134 Y109.659 E0.01
G1 X107.116 Y110.065 E0.01
G1 X107.142 Y110.41 E0.008
G1 X107.221 Y110.779 E0.01
G1 X107.346 Y111.135 E0.009
G1 X107.517 Y111.472 E0.01
G1 X107.732 Y111.785 E0.009
G1 X108.008 Y112.086 E0.01
G1 X108.269 Y112.31 E0.009
G1 X108.585 Y112.516 E0.009
G1 X108.927 Y112.679 E0.01
G1 X109.285 Y112.796 E0.009
G1 X109.659 Y112.866 E0.01
G1 X110.065 Y112.884 E0.01
G1 X110.41 Y112.858 E0.008
G1 X110.779 Y112.779 E0.01
G1 X111.135 Y112.654 E0.009
G1 X111.472 Y112.483 E0.01
G1 X111.785 Y112.268 E0.009
G1 X112.087 Y111.992 E0.01
G1 X112.309 Y111.731 E0.009
G1 X112.516 Y111.416 E0.009
G1 X112.679 Y111.073 E0.01
G1 X112.796 Y110.715 E0.009
G1 X112.866 Y110.341 E0.01
G1 X112.884 Y109.935 E0.01
G1 X112.858 Y109.59 E0.008
G1 X112.779 Y109.221 E0.01
G1 X112.654 Y108.865 E0.009
G1 X112.483 Y108.528 E0.01
G1 X112.268 Y108.215 E0.009
G1 X111.992 Y107.914 E0.01
G1 X111.731 Y107.69 E0.009
G1 X111.415 Y107.484 E0.009
G1 F1800 E-0.5
G0 X111.073 Y107.321 F2400
G0 X110.715 Y107.204 F2400
G0 X110.671 Y107.196 F2400
G0 X110.715 Y107.204 F2400
G0 X111.073 Y107.321 F2400
G0 X111.415 Y107.484 F2400
;rapid-leaky
G0 X115.41 Y109.336 F6000
G1 F1800 E0.5
;bead-sparse_infill
G1 X115.409 Y109.339 F3600
G1 X114.03 Y110.408 E0.044
G1 X113.331 Y111.476 E0.032
G1 X113.102 Y112.544 E0.027
G1 X113.607 Y113.612 E0.029
G1 X113.882 Y113.825 E0.009
G1 X113.696 Y114.007 E0.007
G1 X113.461 Y114.211 E0.007
G1 X112.929 Y114.596 E0.017
G1 X112.655 Y114.76 E0.008
G1 X112.363 Y114.912 E0.008
G1 X112.073 Y115.042 E0.008
G1 X111.524 Y115.23 E0.014
G1 X111.642 Y114.68 E0.014
G1 X111.136 Y113.612 E0.03
G1 X110.547 Y113.156 E0.018
G1 X110.865 Y113.088 E0.009
G1 X111.261 Y112.949 E0.01
G1 X111.635 Y112.758 E0.01
G1 X111.984 Y112.519 E0.011
G1 X112.318 Y112.214 E0.011
G1 X112.565 Y111.923 E0.01
G1 X112.795 Y111.573 E0.01
G1 X112.977 Y111.192 E0.011
G1 X113.106 Y110.794 E0.01
G1 X113.184 Y110.378 E0.011
G1 X113.205 Y109.93 E0.011
G1 X113.175 Y109.545 E0.01
G1 X113.088 Y109.135 E0.01
G1 X112.949 Y108.739 E0.011
G1 X112.758 Y108.365 E0.01
G1 X112.519 Y108.016 E0.011
G1 X112.215 Y107.683 E0.011
G1 X111.923 Y107.433 E0.009
G1 X111.572 Y107.204 E0.011
G1 X111.427 Y107.135 E0.004
G1 X111.642 Y106.135 E0.025
G1 X111.136 Y105.067 E0.03
G1 X110.498 Y104.572 E0.02
G1 X110.463 Y104.568 E0.001
G1 X110.141 Y104.55 E0.008
G1 X109.817 Y104.552 E0.008
G1 X109.5 Y104.572 E0.008
G1 X108.852 Y104.671 E0.016
G1 X108.547 Y104.746 E0.008
G1 X107.927 Y104.958 E0.016
G1 X107.637 Y105.088 E0.008
G1 X107.345 Y105.24 E0.009
G1 X107.071 Y105.404 E0.008
G1 X106.539 Y105.789 E0.016
G1 X106.304 Y105.993 E0.008
G1 X106.284 Y106.013
G1 X106.441 Y106.135 E0.005
G1 X107.14 Y107.203 E0.032
G1 X107.354 Y108.199 E0.026
G1 X107.204 Y108.428 E0.006
G1 X107.023 Y108.808 E0.011
G1 X106.894 Y109.206 E0.01
G1 X106.872 Y109.323 E0.003
G1 X106.864 Y109.339 E0.001
G1 X105.485 Y110.408 E0.043
G1 X104.786 Y111.476 E0.032
G1 X104.773 Y111.538 E0.002
G1 F1800 E-0.5
G0 X104.786 Y111.476 F2400
G0 X105.189 Y110.859 F2400
G0 X104.786 Y111.476 F2400
G0 X104.773 Y111.538 F2400
;rapid-dry
G0 X102.959 Y109.79 F6000
G1 F1800 E0.5
;bead-support
G1 X102.679 Y109.306 F3600 E0.014
G1 F1800 E-0.5
G0 X102.959 Y109.79 F2400
G0 X102.679 Y109.306 F2400
;rapid-leaky
G0 X104.236 Y114.669 F6000
G1 F1800 E0.5
;bead-support
G1 X103.718 Y113.771 F3600 E0.026
G1 X103.653 Y113.497 E0.007
G1 X103.843 Y113.399 E0.005
G1 X104.168 Y113.983 E0.017
G1 X105.24 Y115.218 E0.04
G1 X105.387 Y115.329 E0.005
G1 X105.879 Y116.182 E0.025
G1 X105.982 Y116.26 E0.003
G1 X106.129 Y116.36 E0.004
G1 X106.983 Y116.761 E0.024
G1 X106.644 Y116.173 E0.017
G1 X107.703 Y116.673 E0.029
G1 X107.975 Y117.146 E0.014
G1 X108.868 Y117.359 E0.022
G1 X108.601 Y116.896 E0.014
G1 X109.004 Y116.991 E0.01
G1 X109.44 Y117.015 E0.011
G1 X109.673 Y117.418 E0.012
G1 X110.228 Y117.45 E0.013
G1 X110.445 Y117.423 E0.006
G1 X110.234 Y117.057 E0.01
G1 X110.953 Y116.969 E0.019
G1 X111.164 Y117.335 E0.01
G1 X111.565 Y117.286 E0.01
G1 X111.854 Y117.196 E0.008
G1 X111.655 Y116.853 E0.01
G1 X112.064 Y116.725 E0.01
G1 X112.308 Y116.649 E0.007
G1 X112.506 Y116.993 E0.01
G1 X112.794 Y116.904 E0.007
G1 X112.98 Y116.81 E0.005
G1 X113.124 Y116.73 E0.004
G1 X112.932 Y116.397 E0.01
G1 X113.514 Y116.072 E0.017
G1 X113.707 Y116.406 E0.009
G1 X113.904 Y116.296 E0.006
G1 X114.396 Y116.681 E0.015
G1 X114.461 Y116.379 E0.008
G1 X114.097 Y115.748 E0.018
G1 X114.125 Y115.733 E0.001
G1 X114.614 Y115.31 E0.016
G1 X114.671 Y115.409 E0.003
G1 X114.672 Y115.406
G1 X115.234 Y115.771 E0.017
G1 X115.379 Y115.301 E0.012
G1 X115.12 Y114.854 E0.013
G1 X115.569 Y114.298 E0.018
G1 X115.668 Y114.469 E0.005
G1 X116.085 Y114.411 E0.01
G1 X116.215 Y114.083 E0.009
G1 X115.991 Y113.695 E0.011
G1 F1800 E-0.5
G0 X116.215 Y114.083 F2400
G0 X116.085 Y114.411 F2400
G0 X116.215 Y114.083 F2400
G0 X115.991 Y113.695 F2400
;rapid-leaky
G0 X124.126 Y130.689 F6000
G1 F1800 E0.5
;bead-support
G1 X121.036 Y132.472 F3600 E0.089
G1 F1800 E-0.5
G0 X121.729 Y132.072 F2400
G0 X121.036 Y132.472 F2400
;Layer : 11 of 173
;rapid-leaky
G0 Z1.7 F6000
G1 F1800 E0.5
;bead-support
G1 X124.126 Y130.689 F3600 E0.089
G1 X110.252 Y135.619 E0.368
G1 X110.435 Y135.514 E0.005
G1 X109.866 Y135.093 E0.017
G1 X111.295 Y135.017 E0.036
G1 X130.988 Y123.648 E0.567
G1 X132.121 Y121.796 E0.055
G1 X132.98 Y120.019 E0.049
G1 X133.26 Y119.257 E0.02
G1 X106.365 Y134.785 E0.775
G1 X105.42 Y134.647 E0.024
G1 X103.489 Y134.209 E0.049
G1 X102.563 Y133.9 E0.024
G1 X134.455 Y115.487 E0.919
G1 X134.5 Y115.313 E0.004
G1 X134.957 Y112.37 E0.075
G1 X134.972 Y112.11 E0.006
G1 X99.347 Y132.678 E1.026
G1 F1800 E-0.5
G0 X100.04 Y132.278 F2400
G0 X99.347 Y132.678 F2400
;rapid-leaky
G0 X106.207 Y116.749 F6000
G1 F1800 E0.5
;bead-support
G1 X105.515 Y115.55 F3600 E0.035
G1 X106.261 Y116.113 E0.023
G1 X106.739 Y116.337 E0.013
G1 X107.259 Y117.238 E0.026
G1 X107.364 Y117.286 E0.003
G1 X107.663 Y117.405 E0.008
G1 X108.197 Y117.53 E0.014
G1 X107.783 Y116.812 E0.021
G1 X108.675 Y117.025 E0.023
G1 X109.07 Y117.707 E0.019
G1 X109.865 Y117.752 E0.02
G1 X109.505 Y117.128 E0.018
G1 X110.128 Y117.164 E0.016
G1 X110.219 Y117.169 E0.002
G1 X110.293 Y117.16 E0.002
G1 X110.619 Y117.725 E0.016
G1 X111.339 Y117.637 E0.018
G1 X111.012 Y117.072 E0.016
G1 X111.506 Y117.011 E0.013
G1 X111.71 Y116.948 E0.005
G1 X112.018 Y117.481 E0.015
G1 X112.03 Y117.478 E0.001
G1 X112.67 Y117.277 E0.016
G1 X112.363 Y116.745 E0.016
G1 X112.694 Y116.642 E0.008
G1 X112.982 Y116.483 E0.009
G1 X113.278 Y116.997 E0.014
G1 X113.367 Y116.95 E0.003
G1 X113.862 Y116.675 E0.014
G1 X113.566 Y116.161 E0.015
G1 X114.15 Y115.839 E0.017
G1 X114.681 Y116.76 E0.026
G1 X114.877 Y115.867 E0.023
G1 X114.971 Y115.929 E0.003
G1 X114.664 Y115.397 E0.015
G1 X114.88 Y115.21 E0.007
G1 X115.075 Y115.338 E0.006
G1 X115.187 Y114.97 E0.01
G1 X115.565 Y115.625 E0.018
G1 X115.708 Y115.149 E0.013
G1 X115.913 Y114.893 E0.008
G1 X115.618 Y114.383 E0.015
G1 X115.79 Y114.17 E0.007
G1 X115.885 Y114.156 E0.002
G1 X115.999 Y113.869 E0.008
G1 X116.042 Y113.784 E0.002
G1 X116.38 Y114.369 E0.017
G1 X116.53 Y113.991 E0.01
G1 X116.718 Y113.621 E0.01
G1 X116.406 Y113.081 E0.016
G1 X116.622 Y112.662 E0.012
G1 X116.672 Y112.516 E0.004
G1 X116.731 Y112.31 E0.005
G1 X117.062 Y112.884 E0.016
G1 X117.221 Y112.442 E0.012
G1 X117.291 Y112.29 E0.004
G1 X117.349 Y112.048 E0.006
G1 X116.984 Y111.416 E0.019
G1 X117.002 Y111.352 E0.001
G1 X117.071 Y110.551 E0.02
G1 X117.103 Y110.288 E0.007
G1 X117.528 Y111.024 E0.021
G1 X117.656 Y109.966 E0.027
G1 X117.647 Y109.897 E0.002
G1 X116.986 Y108.753 E0.033
G1 X116.933 Y108.343 E0.01
G1 X116.853 Y108.065 E0.007
G1 X116.441 Y106.855 E0.032
G1 X116.383 Y106.833 E0.001
G1 X115.939 Y106.032 E0.023
G1 X115.81 Y105.623 E0.011
G1 X115.669 Y105.682 E0.004
G1 X114.942 Y104.845 E0.027
G1 X114.842 Y104.508 E0.009
G1 X114.634 Y104.561 E0.006
G1 X114.513 Y104.469 E0.003
G1 X113.682 Y103.029 E0.042
G1 X113.549 Y103.139 E0.004
G1 X112.942 Y102.852 E0.017
G1 X112.762 Y102.77 E0.005
G1 X113.286 Y103.678 E0.026
G1 X112.283 Y103.204 E0.028
G1 X112.237 Y103.193 E0.001
G1 X111.825 Y102.48 E0.02
G1 X111.014 Y102.297 E0.021
G1 X110.947 Y102.293 E0.002
G1 X111.345 Y102.982 E0.02
G1 X110.998 Y102.9 E0.009
G1 X110.512 Y102.872 E0.012
G1 X110.152 Y102.249 E0.018
G1 X109.789 Y102.228 E0.009
G1 X109.524 Y102.254 E0.006
G1 X109.394 Y102.27 E0.004
G1 X109.723 Y102.838 E0.016
G1 X109.004 Y102.927 E0.018
G1 X108.676 Y102.36 E0.016
G1 X108.416 Y102.392 E0.007
G1 X108.177 Y102.458 E0.006
G1 X107.996 Y102.515 E0.005
G1 X108.304 Y103.047 E0.015
G1 X107.651 Y103.251 E0.017
G1 X107.344 Y102.718 E0.016
G1 X107.207 Y102.761 E0.003
G1 X106.921 Y102.894 E0.008
G1 X106.733 Y102.994 E0.005
G1 X107.031 Y103.509 E0.015
G1 X106.447 Y103.831 E0.017
G1 X106.149 Y103.315 E0.015
G1 X106.016 Y103.389 E0.003
G1 X105.351 Y102.887 E0.021
G1 X105.296 Y103.172 E0.007
G1 X105.863 Y104.153 E0.029
G1 X105.682 Y104.253 E0.005
G1 X105.671 Y104.31 E0.001
G1 X105.345 Y104.59 E0.011
G1 X105.103 Y104.171 E0.012
G1 X105.089 Y104.244 E0.002
G1 X104.303 Y103.835 E0.022
G1 X104.279 Y104.076 E0.006
G1 X104.831 Y105.033 E0.028
G1 X104.756 Y105.098 E0.002
G1 X104.751 Y105.149 E0.002
G1 X104.389 Y105.6 E0.014
G1 X104.083 Y105.07 E0.015
G1 X103.969 Y105.212 E0.005
G1 X103.61 Y105.21 E0.009
G1 X103.547 Y105.476 E0.006
G1 X103.962 Y106.195 E0.021
G1 X103.602 Y106.904 E0.02
G1 X103.275 Y106.337 E0.016
G1 X103.245 Y106.395 E0.002
G1 X103.033 Y106.373 E0.005
G1 X102.898 Y107.017 E0.017
G1 X103.263 Y107.649 E0.018
G1 X103.025 Y108.522 E0.023
G1 X103.017 Y108.558
G1 X102.649 Y107.919 E0.019
G1 X102.61 Y108.107 E0.005
G1 X102.52 Y108.326 E0.006
G1 X102.407 Y108.834 E0.013
G1 X102.886 Y109.664 E0.023
G1 X102.862 Y109.773 E0.003
G1 X102.762 Y109.971 E0.006
G1 X102.838 Y110.282 E0.008
G1 X102.891 Y110.356 E0.002
G1 X102.905 Y110.423 E0.002
G1 X103.005 Y111.202 E0.019
G1 X102.106 Y109.646 E0.045
G1 X102.003 Y109.851 E0.006
G1 X102.212 Y110.711 E0.022
G1 X102.432 Y111.02 E0.009
G1 X102.468 Y111.178 E0.004
G1 X102.571 Y111.785 E0.016
G1 X105.07 Y116.113 E0.124
G1 F1800 E-0.5
G0 X104.67 Y115.42 F2400
G0 X105.07 Y116.113 F2400
;rapid-dry
G0 X107.979 Y108.486 F6000
G1 F1800 E0.5
;bead-perimeter_outer
G1 X107.798 Y108.762 E0.009
G1 X107.656 Y109.061 E0.008
G1 X107.554 Y109.374 E0.008
G1 X107.493 Y109.699 E0.008
G1 X107.475 Y110.028 E0.009
G1 X107.5 Y110.358 E0.008
G1 X107.568 Y110.681 E0.008
G1 X107.678 Y110.993 E0.008
G1 X107.828 Y111.287 E0.009
G1 X108.015 Y111.561 E0.008
G1 X108.266 Y111.833 E0.009
G1 X108.486 Y112.021 E0.007
G1 X108.762 Y112.202 E0.009
G1 X109.061 Y112.344 E0.008
G1 X109.374 Y112.446 E0.008
G1 X109.699 Y112.507 E0.008
G1 X110.028 Y112.525 E0.009
G1 X110.358 Y112.5 E0.008
G1 X110.681 Y112.432 E0.008
G1 X110.993 Y112.322 E0.008
G1 X111.287 Y112.172 E0.008
G1 X111.561 Y111.985 E0.009
G1 X111.833 Y111.734 E0.009
G1 X112.02 Y111.514 E0.007
G1 X112.202 Y111.238 E0.008
G1 X112.344 Y110.939 E0.009
G1 X112.446 Y110.626 E0.008
G1 X112.507 Y110.301 E0.008
G1 X112.525 Y109.972 E0.008
G1 X112.5 Y109.642 E0.009
G1 X112.432 Y109.319 E0.008
G1 X112.322 Y109.007 E0.008
G1 X112.172 Y108.713 E0.008
G1 X111.985 Y108.439 E0.009
G1 X111.734 Y108.167 E0.009
G1 X111.514 Y107.979 E0.007
G1 X111.238 Y107.798 E0.008
G1 X110.939 Y107.656 E0.009
G1 X110.626 Y107.554 E0.008
G1 X110.301 Y107.493 E0.008
G1 X109.972 Y107.475 E0.008
G1 X109.642 Y107.5 E0.009
G1 X109.319 Y107.568 E0.008
G1 X109.007 Y107.678 E0.008
G1 X108.713 Y107.828 E0.008
G1 X108.439 Y108.015 E0.009
G1 X108.167 Y108.266 E0.009
G1 X107.979 Y108.486 E0.007
G1 E-0.5
G0 X107.798 Y108.762 F2400
G0 X107.656 Y109.061 F2400
G0 X107.613 Y109.193 F2400
G0 X107.656 Y109.061 F2400
G0 X107.798 Y108.762 F2400
G0 X107.979 Y108.486 F2400
;rapid-leaky
G0 X107.69 Y108.269 F6000
G1 F1800 E0.5
;bead-perimeter_inner
G1 X107.484 Y108.585 F2400 E0.009
G1 X107.321 Y108.927 E0.01
G1 X107.204 Y109.285 E0.009
G1 X107.135 Y109.656 E0.01
G1 X107.114 Y110.031 E0.009
G1 X107.142 Y110.41 E0.009
G1 X107.221 Y110.779 E0.01
G1 X107.346 Y111.135 E0.009
G1 X107.517 Y111.472 E0.01
G1 X107.733 Y111.786 E0.009
G1 X108.016 Y112.093 E0.011
G1 X108.269 Y112.31 E0.008
G1 X108.585 Y112.516 E0.009
G1 X108.927 Y112.679 E0.01
G1 X109.285 Y112.796 E0.009
G1 X109.656 Y112.865 E0.01
G1 X110.031 Y112.886 E0.009
G1 X110.41 Y112.858 E0.009
G1 X110.779 Y112.779 E0.01
G1 X111.135 Y112.654 E0.009
G1 X111.472 Y112.483 E0.01
G1 X111.786 Y112.267 E0.009
G1 X112.093 Y111.984 E0.011
G1 X112.309 Y111.731 E0.008
G1 X112.516 Y111.416 E0.009
G1 X112.679 Y111.073 E0.01
G1 X112.796 Y110.715 E0.009
G1 X112.865 Y110.345 E0.01
G1 X112.886 Y109.969 E0.009
G1 X112.858 Y109.59 E0.009
G1 X112.779 Y109.221 E0.01
G1 X112.654 Y108.865 E0.009
G1 X112.483 Y108.528 E0.01
G1 X112.267 Y108.214 E0.009
G1 X111.984 Y107.907 E0.011
